!!!!SEGMENT: pl-kj--mus-ant-pract-p-1398--002_scacchi-marco--wie-gut-ist-auf-den-allerhochsten-bauen.krn
!!!cenid: 16xx:1765
!!!COM: Scacchi, Marco
!!!COM-rismID: pe30013433
!!!CDT: ~1605-1662
!!!CNT: Italian
!!!OTL: Wie gut ist auf den Allerhöchsten bauen
!!!PDT: 1646
!!!AGN:
!!!YEC: Copyright 2022 Narodowy Instytut Fryderyka Chopina (https://polishscores.org)
!!!YEM: License CC-BY-4.0 (https://creativecommons.org/licenses/by/4.0)
!!!SMS-siglum: PL-Kj
!!!SMS-shelfmark: Mus.ant.pract. P 1398
!!!SMS-shelfwork: 002 W
!!!SMS-variant:
!!!SMS-altvar:
!!!NIFC-rismSourceID: 1001207355
!!!NIFC-rismChildID: 1001207355
!!!NIFC-islandoraID: none
!!!URL-pdf-islandora:
!!!URL-scan: https://jbc.bj.uj.edu.pl/dlibra/doccontent?id=295678, Alto (str. 26-27):
!!!URL-scan: https://jbc.bj.uj.edu.pl/dlibra/doccontent?id=295679, Tenor I (str. 36-37):
!!!URL-scan: https://jbc.bj.uj.edu.pl/dlibra/doccontent?id=295680, Tenor II (str. 12-13):
!!!URL-scan: https://jbc.bj.uj.edu.pl/dlibra/doccontent?id=295682, Basso (str. 35):
!!!URL-scan: https://jbc.bj.uj.edu.pl/dlibra/doccontent?id=295681, Bassus Continuus (str. 29-30):
!!!URL-scan: https://jbc.bj.uj.edu.pl/dlibra/doccontent?id=295684
!!!IIIF:
!!!ONB-nifc:
!!!AIN: 1 alto 1 bass 1 soprn 2 tenor
!!!key: F
**kern	**kern	**text	**text	**kern	**text	**text	**kern	**text	**text	**kern	**text	**text	**kern	**text	**text
*part6	*part5	*	*	*part4	*	*	*part3	*	*	*part2	*	*	*part1	*	*
*staff6	*staff5	*	*	*staff4	*	*	*staff3	*	*	*staff2	*	*	*staff1	*	*
*I"Baſſus Cont.	*I"Baſſo.	*	*	*I"Tenor II.	*	*	*I"Tenor I.	*	*	*I"Alto.	*	*	*I"Canto.	*	*
*I'bc	*I'B	*	*	*I'T 2	*	*	*I'T 1	*	*	*I'A	*	*	*I'S	*	*
*	*ICvox	*	*	*ICvox	*	*	*ICvox	*	*	*ICvox	*	*	*ICvox	*	*
*	*Ibass	*	*	*Itenor	*	*	*Itenor	*	*	*Ialto	*	*	*Isoprn	*	*
*IGcont	*	*	*	*	*	*	*	*	*	*	*	*	*	*	*
*clefF4	*clefF4	*	*	*clefC4	*	*	*clefC4	*	*	*clefC3	*	*	*clefC1	*	*
*k[b-]	*k[b-]	*	*	*k[b-]	*	*	*k[b-]	*	*	*k[b-]	*	*	*k[b-]	*	*
*F:	*F:	*	*	*F:	*	*	*F:	*	*	*F:	*	*	*F:	*	*
*M2/1	*M2/1	*	*	*M2/1	*	*	*M2/1	*	*	*M2/1	*	*	*M2/1	*	*
*met(C)	*met(C)	*	*	*met(C)	*	*	*met(C)	*	*	*met(C)	*	*	*met(C)	*	*
=1-	=1-	=1-	=1-	=1-	=1-	=1-	=1-	=1-	=1-	=1-	=1-	=1-	=1-	=1-	=1-
!LO:TX:b:t=WJe gut iſt auff den allerhöchſten bawen/(.).	!LO:TX:b:t=WJe gut iſt&colon;	!	!	!LO:TX:b:t=Ad te&colon;	!	!	!LO:TX:b:i:t=Vezzoſe.	!	!	!LO:TX:b:t=WJe gut&colon;	!	!	!LO:TX:b:i:t=Vezzoſe.	!	!
!LO:TX:b:t=Ad te Deus&colon;	!LO:TX:b:i:t=Vezzoſe.	!	!	!LO:TX:b:i:t=Vezzoſe.	!	!	!LO:TX:b:t=Ad te Deus&colon;	!	!	!LO:TX:b:i:t=Vezzoſe.	!	!	!	!	!
!LO:TX:b:i:t=Vezzoſe.	!	!	!	!LO:TX:b:t=WJe gut&colon;	!	!	!LO:TX:b:t=WJe gut iſt&colon;	!	!	!LO:TX:b:t=Ad te&colon;	!	!	!	!	!
4FF/	00r	.	.	00r	.	.	00r	.	.	0r	.	.	4r	.	.
4AA/	.	.	.	.	.	.	.	.	.	.	.	.	4f/	WJe	Ad
4BB-/	.	.	.	.	.	.	.	.	.	.	.	.	4g/	gut	te
4C/	.	.	.	.	.	.	.	.	.	.	.	.	4g/	iſt	DE-
4FF/	.	.	.	.	.	.	.	.	.	.	.	.	4.a\	auff	-US
4AA/	.	.	.	.	.	.	.	.	.	.	.	.	.	.	.
.	.	.	.	.	.	.	.	.	.	.	.	.	8cc\	den	qvi
4BB-/	.	.	.	.	.	.	.	.	.	.	.	.	8dd\	al-	ha-
.	.	.	.	.	.	.	.	.	.	.	.	.	8ee\	-ler-	-bi-
!LO:TX:t=P:problem:kreska pseudotaktowa	!	!	!	!	!	!	!	!	!	!	!	!	!	!	!
4FF/	.	.	.	.	.	.	.	.	.	.	.	.	8ff\	-hóch-	-tas
.	.	.	.	.	.	.	.	.	.	.	.	.	8ee\	-ſten	in
=2-	=2-	=2-	=2-	=2-	=2-	=2-	=2-	=2-	=2-	=2-	=2-	=2-	=2-	=2-	=2-
2GG/	.	.	.	.	.	.	.	.	.	2r	.	.	2dd\	ba-	coe-
4C/	.	.	.	.	.	.	.	.	.	4r	.	.	2cc\	-wen	-lis,
4FF/	.	.	.	.	.	.	.	.	.	4f\	Wie	Le-	.	.	.
4C/	.	.	.	.	.	.	.	.	.	4e\	herr-	-va-	1r	.	.
8D/	.	.	.	.	.	.	.	.	.	4d\	-lich	-vi	.	.	.
8E\	.	.	.	.	.	.	.	.	.	.	.	.	.	.	.
4F\	.	.	.	.	.	.	.	.	.	4.c/	iſts	o-	.	.	.
4E\	.	.	.	.	.	.	.	.	.	.	.	.	.	.	.
.	.	.	.	.	.	.	.	.	.	8c/	auff	-cu-	.	.	.
=3-	=3-	=3-	=3-	=3-	=3-	=3-	=3-	=3-	=3-	=3-	=3-	=3-	=3-	=3-	=3-
4D/	0r	.	.	00r	.	.	2r	.	.	8d\	Got-	-los	00r	.	.
.	.	.	.	.	.	.	.	.	.	8e\	-tes	be-	.	.	.
4AA/	.	.	.	.	.	.	.	.	.	8f\	Gü-	-nig-	.	.	.
.	.	.	.	.	.	.	.	.	.	8f\	-te	-ne	.	.	.
4BB-/	.	.	.	.	.	.	4r	.	.	4f\	traw-	me-	.	.	.
4C/	.	.	.	.	.	.	8G/	Un-	O-	4e\	.	.	.	.	.
.	.	.	.	.	.	.	8G/	-ter	-cu-	.	.	.	.	.	.
4F\	.	.	.	.	.	.	4A/	ſchau-	-li	2f\	-en	-os,	.	.	.
4D/	.	.	.	.	.	.	8A/	-ren	(et)	.	.	.	.	.	.
.	.	.	.	.	.	.	8F/	vnd	an-	.	.	.	.	.	.
*custos:G	*	*	*	*	*	*	*	*	*	*	*	*	*	*	*
!LO:LB:g=original	!	!	!	!	!	!	!	!	!	!	!	!	!	!	!
!LO:TX:t=P:problem:kreska pseudotaktowa	!	!	!	!	!	!	!	!	!	!	!	!	!	!	!
2G\	.	.	.	.	.	.	4B-\	trau-	-cil-	2r	.	.	.	.	.
.	.	.	.	.	.	.	8B-\	-ren	-lae	.	.	.	.	.	.
.	.	.	.	.	.	.	8G/	vnd	in	.	.	.	.	.	.
*	*	*	*	*	*	*	*	*	*	*custos:e	*	*	*	*	*
!	!	!	!	!	!	!	!	!	!	!LO:LB:g=original	!	!	!	!	!
=4-	=4-	=4-	=4-	=4-	=4-	=4-	=4-	=4-	=4-	=4-	=4-	=4-	=4-	=4-	=4-
4E\	1r	.	.	.	.	.	4c\	trau-	ma-	2r	.	.	.	.	.
4F\	.	.	.	.	.	.	4c\	-ren	-ni-	.	.	.	.	.	.
4c\	.	.	.	.	.	.	4c\	in	-bus	4e\	in	i-	.	.	.
4B-\	.	.	.	.	.	.	8c\	al-	do-	8e\	al-	-ta	.	.	.
.	.	.	.	.	.	.	8c\	-ler	-mi-	8e\	-ler	(et)	.	.	.
*	*	*	*	*	*	*	*custos:c	*	*	*	*	*	*	*	*
!	!	!	!	!	!	!	!LO:LB:g=original	!	!	!	!	!	!	!	!
4A\	2r	.	.	.	.	.	4.c\	Noth	-na-	4.e\	Angſt-	o-	.	.	.
4G\	.	.	.	.	.	.	.	.	.	.	.	.	.	.	.
.	.	.	.	.	.	.	8c\	fan	-rum	8e\	-tan-	-cu-	.	.	.
4F\	4r	.	.	.	.	.	8c\	ſei-	ma-	8e\	-fei-	-li	.	.	.
.	.	.	.	.	.	.	8c\	-ne	-ni-	8e\	-ne	no-	.	.	.
!LO:TX:t=P:problem:kreska pseudotaktowa	!	!	!	!	!	!	!	!	!	!	!	!	!	!	!
4E\	4E\	Er	ad	.	.	.	8c\	hülf-	-bus	8e\	hülf-	-ſtri	.	.	.
.	.	.	.	.	.	.	8c\	-fe	ſu-	8d\	-fe	di-	.	.	.
=5-	=5-	=5-	=5-	=5-	=5-	=5-	=5-	=5-	=5-	=5-	=5-	=5-	=5-	=5-	=5-
4F\	4F\	wacht	DE-	1r	.	.	4c\	nü(h-	-a-	2d\	nü(h-	-re-	1r	.	.
4G\	4G\	für	-UM	.	.	.	4Bn\	.	.	.	.	.	.	.	.
4A\	4A\	un-	ſo-	.	.	.	2c\	-r)en	-rum,	2c/	-r)en	-cti	.	.	.
4E\	4E\	-ſer	-lum	.	.	.	.	.	.	.	.	.	.	.	.
2G\	2G\	Mau-	ve-	2r	.	.	0r	.	.	0r	.	.	4g/	in	nam
.	.	.	.	.	.	.	.	.	.	.	.	.	8g/	al-	ſi-
.	.	.	.	.	.	.	.	.	.	.	.	.	8f/	-ler	-cut
*	*	*	*	*	*	*	*	*	*	*	*	*	*custos:e	*	*
!LO:TX:t=P:problem:kreska pseudotaktowa	!	!	!	!	!	!	!	!	!	!	!	!	!LO:LB:g=original	!	!
2C/	2C/	-ren	-rum,	4c\	in	ut	.	.	.	.	.	.	4.e/	Noth	o-
.	.	.	.	8c\	al-	o-	.	.	.	.	.	.	.	.	.
.	.	.	.	8B-\	-ler	-cu-	.	.	.	.	.	.	8d/	weiſ	-cu-
=6-	=6-	=6-	=6-	=6-	=6-	=6-	=6-	=6-	=6-	=6-	=6-	=6-	=6-	=6-	=6-
4.F\	4F\	in	ut	4.A/	Noth	-li	.	.	.	.	.	.	8c/	Er	-li
.	.	.	.	.	.	.	.	.	.	.	.	.	8c/	vns	fer-
.	8F\	al-	o-	.	.	.	.	.	.	.	.	.	8d/	zu	-vo-
8E\	8E\	-ler	-cu-	8G/	weiſ	fi-	.	.	.	.	.	.	8e/	be	-rum
4.D/	4.D/	Noth	-li	8F/	Er	-de-	.	.	.	.	.	.	4f/	-ſchü(g-	in
.	.	.	.	8F/	vns	-li-	.	.	.	.	.	.	.	.	.
.	.	.	.	8F/	zu	-um	.	.	.	.	.	.	8f/	-r)en	ma-
8C/	8C/	weiß	fi-	8E/	be	fer-	.	.	.	.	.	.	8cc\	weiß	-ni-
*	*custos:BB-	*	*	*	*	*	*	*	*	*	*	*	*	*	*
!	!LO:LB:g=original	!	!	!	!	!	!	!	!	!	!	!	!	!	!
4BB-/	8BB-/	Er	-de-	8D/	-ſchü(g-	-vo-	4r	.	.	1r	.	.	8dd\	Er	-bus
.	8AA/	vns	-li-	8E/	.	.	.	.	.	.	.	.	8cc\	vns	ſunt
4AA/	8.AA/	zu	-um	2F/	.	.	4F/	Wie	Ad	.	.	.	8.cc\	zu	Do-
.	16GG/	be-	fer-	.	.	.	.	.	.	.	.	.	16b-\	be-	-mi-
2GG/	2GG/	-ſchü(g-	-vo-	.	.	.	4G/	gut	te	.	.	.	2b-\	-ſchü(g-	-no-
.	.	.	.	4E/	.	.	4G/	iſts	DE-	.	.	.	.	.	.
=7-	=7-	=7-	=7-	=7-	=7-	=7-	=7-	=7-	=7-	=7-	=7-	=7-	=7-	=7-	=7-
2FF/	2FF/	-r)en	-rum,	2F/	-r)en	-rum,	4.A/	auff	-US,	4r	.	.	2a\	-r)en	-rum,
.	.	.	.	.	.	.	.	.	.	4c/	wie	ad	.	.	.
.	.	.	.	.	.	.	8c\	den	qvi	.	.	.	.	.	.
4BB-/	2r	.	.	2r	.	.	8B-y\	Al-	ha-	4d\	gut	te	2r	.	.
.	.	.	.	.	.	.	8d\	-ler-	-bi-	.	.	.	.	.	.
4C/	.	.	.	.	.	.	8c\	-höch-	-tas	4e\	iſts	De-	.	.	.
.	.	.	.	.	.	.	8B-\	-ſten	in	.	.	.	.	.	.
*custos:FF	*	*	*	*custos:c	*	*	*custos:A	*	*	*custos:f	*	*	*	*	*
!LO:LB:g=original	!	!	!	!LO:LB:g=original	!	!	!LO:LB:g=original	!	!	!LO:LB:g=original	!	!	!	!	!
4FF/	4r	.	.	1r	.	.	8A/	bae-	coe-	4.f\	auff	-us,	4r	.	.
.	.	.	.	.	.	.	8B-\	.	.	.	.	.	.	.	.
4F\	4F\	Wie	le-	.	.	.	2c\	.	.	.	.	.	4c/	Wie	ad
.	.	.	.	.	.	.	.	.	.	8a\	den	qvi	.	.	.
4E\	4E\	herr-	-va-	.	.	.	.	.	.	8g\	al-	ha-	4c/	gut	te
.	.	.	.	.	.	.	.	.	.	8g\	-ler-	-bi-	.	.	.
4D/	4D/	-lich	-vi	.	.	.	4Bn\	.	.	8f\	-höch-	-tas	4d/	iſt	De-
.	.	.	.	.	.	.	.	.	.	8g\	-ſten	in	.	.	.
*	*	*	*	*	*	*	*	*	*	*	*	*	*custos:e	*	*
!	!	!	!	!	!	!	!	!	!	!	!	!	!LO:LB:g=original	!	!
=8-	=8-	=8-	=8-	=8-	=8-	=8-	=8-	=8-	=8-	=8-	=8-	=8-	=8-	=8-	=8-
2C/	4.C/	iſts	o-	4r	.	.	2c\	-en	-lis,	4a\	ba-	coe-	4.e/	auff	-us
.	.	.	.	4c\	wie	le-	.	.	.	4g\	-wen	-lis,	.	.	.
.	8C/	auff	-cu-	.	.	.	.	.	.	.	.	.	8e/	den	qvi
4D/	8D/	Got-	-los	4B-\	herr-	-va-	2r	.	.	2r	.	.	8f/	Al-	ha-
.	8E\	-tes	be-	.	.	.	.	.	.	.	.	.	8g/	-ler-	-bi-
4F\	8F\	Gü-	-nig-	4A/	-lich	-vi	.	.	.	.	.	.	8a\	-höch-	-tas
.	8F\	-te	-ne	.	.	.	.	.	.	.	.	.	8f/	-ſten	in
2C/	4F\	trau-	me-	4.G/	iſts	o-	0r	.	.	4r	.	.	2cc\	ba-	coe-
.	4E\	.	.	.	.	.	.	.	.	4g\	wie	le-	.	.	.
.	.	.	.	8G/	auff	-cu-	.	.	.	.	.	.	.	.	.
2F\	2F\	-en	-os,	8A/	Got-	-los	.	.	.	4f\	herr-	-va-	2cc\	-wen	-lis,
.	.	.	.	8B-\	-tes	be-	.	.	.	.	.	.	.	.	.
.	.	.	.	8c\	Gü-	-nig-	.	.	.	4e\	-lich	-vi	.	.	.
.	.	.	.	8c\	-te	-ne	.	.	.	.	.	.	.	.	.
=9-	=9-	=9-	=9-	=9-	=9-	=9-	=9-	=9-	=9-	=9-	=9-	=9-	=9-	=9-	=9-
2G\	0r	.	.	4c\	traw-	me-	.	.	.	4.d\	iſts	o-	4r	.	.
.	.	.	.	4Bn\	.	.	.	.	.	.	.	.	8g/	vn-	io-
.	.	.	.	.	.	.	.	.	.	8d\	auff	-cu-	8g/	-ter	-cu-
2C/	.	.	.	2c\	-en	-os,	.	.	.	8e\	Got-	-los	4g/	Schaw-	-li
.	.	.	.	.	.	.	.	.	.	8e\	-tes	be-	.	.	.
.	.	.	.	.	.	.	.	.	.	8e\	Gü-	-nig-	8g/	-ren	(et)
.	.	.	.	.	.	.	.	.	.	8g\	-te	-ne	8e/	vnd	an-
*	*	*	*	*	*	*	*	*	*	*custos:f	*	*	*	*	*
!	!	!	!	!	!	!	!	!	!	!LO:LB:g=original	!	!	!	!	!
4.FF/	.	.	.	0r	.	.	2r	.	.	4f\	traw-	me-	4a\	Zraw-	-cil-
.	.	.	.	.	.	.	.	.	.	4f\	-en	-os	4a\	-ren	-lae
8GG/	.	.	.	.	.	.	.	.	.	.	.	.	.	.	.
4AA/	.	.	.	.	.	.	4r	.	.	4f\	in	i-	4a\	in	ina
4FF/	.	.	.	.	.	.	4A/	Er	ad	8f\	al-	-ta	8a\	al-	ma-
!	!	!	!	!	!	!	!	!	!	!	!	!	!LO:TX:b:t=Noth	!	!
.	.	.	.	.	.	.	.	.	.	8f\	-ler	(et)	8a\	-ler	-ni-
*	*	*	*	*	*	*	*	*	*	*	*	*	*custos:a	*	*
!	!	!	!	!	!	!	!	!	!	!	!	!	!LO:PB:g=original	!	!
=10-	=10-	=10-	=10-	=10-	=10-	=10-	=10-	=10-	=10-	=10-	=10-	=10-	=10-	=10-	=10-
4BB-/	1r	.	.	.	.	.	4B-y\	wacht	DE-	4.f\	Angſt-	o-	4.a\	Noth	-bus
4C/	.	.	.	.	.	.	4c\	für	-UM	.	.	.	.	.	.
.	.	.	.	.	.	.	.	.	.	8f\	-tan-	-cu-	8a\	fan	ſu-
4D/	.	.	.	.	.	.	4d\	vn-	ſo-	8f\	-fei-	-li	8a\	ſei-	-a-
.	.	.	.	.	.	.	.	.	.	8f\	-ne	no-	8a\	-ne	-rum
4AA/	.	.	.	.	.	.	4A/	-ſer	-lum	8f\	hülf-	-ſtri	8.a\	hül-	Do-
.	.	.	.	.	.	.	.	.	.	8f\	-fe	di-	.	.	.
.	.	.	.	.	.	.	.	.	.	.	.	.	16g/	-ffe	-mi-
*	*custos:C	*	*	*	*	*	*	*	*	*	*	*	*	*	*
!	!LO:LB:g=original	!	!	!	!	!	!	!	!	!	!	!	!	!	!
2C/	4r	.	.	1r	.	.	2c\	Mau-	ve-	4f\	nü(h-	-re-	2g/	nü(h-	-na-
.	8C/	vn-	o-	.	.	.	.	.	.	4e\	.	.	.	.	.
.	8C/	-ter	-cu-	.	.	.	.	.	.	.	.	.	.	.	.
2D/	4D/	ſchau-	-li	.	.	.	2F/	-ren	-rum,	2f\	-r)en	-cti,	2f/	-r)en	-rum,
.	8D/	-ren	ac	.	.	.	.	.	.	.	.	.	.	.	.
.	8D/	vnd	an-	.	.	.	.	.	.	.	.	.	.	.	.
*	*	*	*	*	*	*	*	*	*	*custos:e	*	*	*	*	*
!	!	!	!	!	!	!	!	!	!	!LO:LB:g=original	!	!	!	!	!
=11-	=11-	=11-	=11-	=11-	=11-	=11-	=11-	=11-	=11-	=11-	=11-	=11-	=11-	=11-	=11-
4.C/	4E\	trau-	-cil-	2r	.	.	0r	.	.	2r	.	.	0r	.	.
.	4C/	-ren	-lae	.	.	.	.	.	.	.	.	.	.	.	.
8BB-/	.	.	.	.	.	.	.	.	.	.	.	.	.	.	.
*	*	*	*	*	*	*	*	*	*	*	*ij	*ij	*	*	*
4AA/	4c\	in	in	4r	.	.	.	.	.	4e\	in	i-	.	.	.
4E\	8c\	al-	ma-	4E/	Er	ad	.	.	.	8e\	al-	-ta	.	.	.
.	8c\	-ler	-ni-	.	.	.	.	.	.	8e\	-ler	(et)	.	.	.
*custos:F	*	*	*	*	*	*	*	*	*	*	*	*	*	*	*
!LO:LB:g=original	!	!	!	!	!	!	!	!	!	!	!	!	!	!	!
4F\	4.c\	Angſt-	-bus	4F/	wacht	De-	.	.	.	4.e\	Angſt-	o-	.	.	.
4G\	.	.	.	4G/	für	-um	.	.	.	.	.	.	.	.	.
.	8c\	-tan-	ſu-	.	.	.	.	.	.	8e\	-tan-	-cu-	.	.	.
*	*	*	*	*custos:A	*	*	*	*	*	*	*	*	*	*	*
!	!	!	!	!LO:LB:g=original	!	!	!	!	!	!	!	!	!	!	!
4A\	8c\	-fei-	-a-	4A/	vn-	ſo-	.	.	.	8e\	-fei-	-li	.	.	.
.	8c\	-ne	-rum	.	.	.	.	.	.	8e\	-ne	no-	.	.	.
!LO:TX:t=P:problem:kreska pseudotaktowa	!	!	!	!	!	!	!	!	!	!	!	!	!	!	!
4E\	8c\	hülf-	Do-	4E/	-ſre	-lum	.	.	.	8.e\	hülf-	-ſtri	.	.	.
.	8c\	-fe	-mi-	.	.	.	.	.	.	.	.	.	.	.	.
.	.	.	.	.	.	.	.	.	.	16d\	-fe	di-	.	.	.
=12-	=12-	=12-	=12-	=12-	=12-	=12-	=12-	=12-	=12-	=12-	=12-	=12-	=12-	=12-	=12-
2G\	4c\	nü(h-	-na-	2G/	Maw-	ve-	2r	.	.	4d\	nü(h-	-re-	4g/	in	ut
!	!LO:N:acc=#	!	!	!	!	!	!	!	!	!	!	!	!	!	!
.	4Bn\	.	.	.	.	.	.	.	.	4d\	-r)en	-cti,	8g/	al-	o-
.	.	.	.	.	.	.	.	.	.	.	.	.	8f/	-ler	-cu-
2C/	2c\	-r)en	-rum,	2C/	-ren	-rum,	4c\	in	ut	2r	.	.	2e/	Noth	-li,
.	.	.	.	.	.	.	8c\	al-	o-	.	.	.	.	.	.
.	.	.	.	.	.	.	8B-\	-ler	-cu-	.	.	.	.	.	.
!LO:TX:t=P:problem:kreska pseudotaktowa	!	!	!	!	!	!	!	!	!	!	!	!	!	!	!
*	*	*	*	*	*	*	*	*	*	*	*Xij	*Xij	*	*ij	*ij
1F	1r	.	.	0r	.	.	4A/	Noth	-li	4a\	in	ut	4cc\	in	ut
.	.	.	.	.	.	.	4F/	fan	fi-	8a\	al-	o-	8cc\	al-	o-
.	.	.	.	.	.	.	.	.	.	8g\	-ler	-cu-	8b-\	-ler	-cu-
*	*	*	*	*	*	*	*custos:F	*	*	*custos:f	*	*	*	*	*
!	!	!	!	!	!	!	!LO:LB:g=original	!	!	!LO:LB:g=original	!	!	!	!	!
.	.	.	.	.	.	.	8F/	ſei-	-de-	4.f\	Noth	-li	4.a\	Noth	-li,
.	.	.	.	.	.	.	8G/	-ne	-li-	.	.	.	.	.	.
.	.	.	.	.	.	.	8.A/	hülf-	-um	.	.	.	.	.	.
*	*	*	*	*	*	*	*	*	*	*	*	*	*	*Xij	*Xij
.	.	.	.	.	.	.	.	.	.	8a\	weiß	fi-	8cc\	fan	fi-
.	.	.	.	.	.	.	16B-\	-fe	fer-	.	.	.	.	.	.
*	*custos:AA	*	*	*	*	*	*	*	*	*	*	*	*custos:cc	*	*
!	!LO:LB:g=original	!	!	!	!	!	!	!	!	!	!	!	!LO:LB:g=original	!	!
=13-	=13-	=13-	=13-	=13-	=13-	=13-	=13-	=13-	=13-	=13-	=13-	=13-	=13-	=13-	=13-
4C/	4r	.	.	.	.	.	4c\	nü(h-	-vo-	8g\	Er	-de-	8cc\	ſei-	-de-
.	.	.	.	.	.	.	.	.	.	8f\	vns	-li-	8a\	-ne	-li-
4AA/	4AA/	Er	ad	.	.	.	4c\	-r)en	-rum,	8f\	zu	-um	8a\	hül-	-um
.	.	.	.	.	.	.	.	.	.	8f\	be-	fer-	8g/	-ffe	fer-
4BB-/	4BB-/	wacht	DE-	.	.	.	2r	.	.	4f\	-ſchü-	-vo-	2g/	nü(g-	-vo-
4C/	4C/	für	-UM	.	.	.	.	.	.	4e\	.	.	.	.	.
4D/	4D/	vn-	ſo-	2r	.	.	00r	.	.	2f\	-(gr)en	-rum,	2f/	-r)en	-rum,
4AA/	4AA/	-ſer	-lum	.	.	.	.	.	.	.	.	.	.	.	.
!LO:TX:t=P:problem:kreska pseudotaktowa	!	!	!	!	!	!	!	!	!	!	!	!	!	!	!
2C/	2C/	Maw-	noſ-	4c\	in	ut	.	.	.	2r	.	.	2r	.	.
.	.	.	.	8c\	al-	o-	.	.	.	.	.	.	.	.	.
.	.	.	.	8B-y\	-ler	-cu-	.	.	.	.	.	.	.	.	.
=14-	=14-	=14-	=14-	=14-	=14-	=14-	=14-	=14-	=14-	=14-	=14-	=14-	=14-	=14-	=14-
*	*	*	*	*	*	*	*	*	*	*	*ij	*	*	*	*ij
2FF/	2FF/	-ren	-trum,	2A/	Noth	-li	.	.	.	4a\	in	ut	4cc\	in	ut
.	.	.	.	.	.	.	.	.	.	8a\	al-	o-	8cc\	al-	o-
.	.	.	.	.	.	.	.	.	.	8g\	-ler	-cu-	8b-\	-ler	-cu-
*	*	*	*	*	*ij	*ij	*	*	*	*	*	*	*	*	*
2D/	2r	.	.	4d\	in	ut	.	.	.	4.f\	Noth	-li	8a\	Noth	-li
.	.	.	.	.	.	.	.	.	.	.	.	.	8a\	weiß	fi-
.	.	.	.	8d\	al-	o-	.	.	.	.	.	.	8b-\	et	-de-
!	!	!	!	!	!	!	!	!	!	!LO:TX:b:t=Er	!	!	!	!	!
.	.	.	.	8c\	-ler	-cu-	.	.	.	8e\	weiß	fi-	8cc\	vns	-li-
*	*	*	*	*	*	*	*	*	*	*custos:d	*	*	*	*	*
!	!	!	!	!	!	!	!	!	!	!LO:PB:g=original	!	!	!	!	!
2BB-/	2r	.	.	4.B-\	Noth	-li	.	.	.	8d\	Er	-de-	4dd\	zu	-um
.	.	.	.	.	.	.	.	.	.	8c/	vns	-li-	.	.	.
.	.	.	.	.	.	.	.	.	.	8d\	zu	-um	4dd\	be-	fer-
*	*	*ij	*ij	*	*Xij	*Xij	*	*	*	*	*	*	*	*	*
.	.	.	.	8G/	weiß	fi-	.	.	.	8e\	be-	fer-	.	.	.
4FF/	4r	.	.	8.A/	Er	-de-	.	.	.	8f\	-ſchü-	-vo-	4cc\	-ſchü(g-	-vo-
.	.	.	.	.	.	.	.	.	.	8e\	.	.	.	.	.
.	.	.	.	16B-\	vns	-li-	.	.	.	.	.	.	.	.	.
!LO:TX:t=P:problem:kreska pseudotaktowa	!	!	!	!	!	!	!	!	!	!	!	!	!	!	!
4E\	4E\	Er	ad	8c\	zu	-um	.	.	.	8e\	.	.	4g/	-r)en	-rum,
!	!	!	!	!LO:TX:b:t=ſchü(gr)en	!	!	!	!	!	!	!	!	!	!	!
.	.	.	.	8c\	be-	fer-	.	.	.	16d\	.	.	.	.	.
.	.	.	.	.	.	.	.	.	.	16c/	.	.	.	.	.
*	*	*	*	*custos:c	*	*	*	*	*	*	*	*	*custos:g	*	*
!	!	!	!	!LO:PB:g=original	!	!	!	!	!	!	!	!	!LO:LB:g=original	!	!
=15-	=15-	=15-	=15-	=15-	=15-	=15-	=15-	=15-	=15-	=15-	=15-	=15-	=15-	=15-	=15-
4F\	4F\	wacht	DE-	4c\	-ſchü-	-vo-	.	.	.	2d\	.	.	1r	.	.
4G\	4G\	für	-UM	4Bn\	.	.	.	.	.	.	.	.	.	.	.
4A\	4A\	vn-	ſo-	2c\	-(gr)en	-rum,	.	.	.	2c/	-(gr)en	-rum,	.	.	.
4E\	4E\	-ſer	-lum	.	.	.	.	.	.	.	.	.	.	.	.
*custos:G	*	*	*	*	*	*	*	*ij	*ij	*	*Xij	*	*	*ij	*
!LO:LB:g=original	!	!	!	!	!	!	!	!	!	!	!	!	!	!	!
2G\	2G\	Maw-	noſ-	0r	.	.	2r	.	.	1r	.	.	4g/	in	ut
.	.	.	.	.	.	.	.	.	.	.	.	.	8g/	al-	o-
.	.	.	.	.	.	.	.	.	.	.	.	.	8f/	-ler	-cu-
!LO:TX:t=P:problem:kreska pseudotaktowa	!	!	!	!	!	!	!	!	!	!	!	!	!	!	!
2C/	2C/	-ren	-trum,	.	.	.	4c\	in	ut	.	.	.	4.e/	Noth	-li
.	.	.	.	.	.	.	8c\	al-	o-	.	.	.	.	.	.
.	.	.	.	.	.	.	8B-\	-ler	-cu-	.	.	.	8d/	weiß	fi-
*	*	*Xij	*Xij	*	*	*	*	*	*	*	*	*	*	*	*
=16-	=16-	=16-	=16-	=16-	=16-	=16-	=16-	=16-	=16-	=16-	=16-	=16-	=16-	=16-	=16-
4.F\	4F\	in	ut	.	.	.	4.A/	Noth	-li	2r	.	.	8c/	et	-de-
.	.	.	.	.	.	.	.	.	.	.	.	.	8c/	vns	-li-
.	8F\	al-	o-	.	.	.	.	.	.	.	.	.	8d/	zu	-um
8E\	8E\	-ler	-cu-	.	.	.	8G/	fan	fi-	.	.	.	8e/	be-	fer-
*	*	*	*	*	*	*	*	*	*	*	*ij	*ij	*	*	*
4.D/	4.D/	Noth	-li	.	.	.	8F/	ſei-	-de-	4f\	in	ut	4f/	-ſchü(g-	-vo-
.	.	.	.	.	.	.	8G/	-ne	-li-	.	.	.	.	.	.
.	.	.	.	.	.	.	8A/	hülf-	-um	8f\	al-	o-	4d/	-r)en	-rum,
8C/	8C/	weiß	fi	.	.	.	8A/	-fe	fer-	8e\	-ler	-cu-	.	.	.
*	*custos:BB-	*	*	*	*	*	*	*	*	*	*	*	*	*	*
!	!LO:LB:g=original	!	!	!	!	!	!	!	!	!	!	!	!	!	!
4.BB-/	8BB-/	Er	-de-	1r	.	.	4B-\	nü(h-	-vo-	4d\	Roth	-li	4dd\	in	ut
.	8BB-/	vns	-li-	.	.	.	.	.	.	.	.	.	.	.	.
.	8BB-/	zu	-um	.	.	.	(>4F/	-r)en	-rum,	4B-/	weiß	fi-	8dd\	al-	o-
8AA/	8AA/	be-	fer-	.	.	.	.	.	.	.	.	.	8cc\	-ler	-cu-
!LO:TX:t=P:problem:kreska pseudotaktowa	!	!	!	!	!	!	!	!	!	!	!	!	!	!	!
2GG/	2GG/	-ſchü-	-vo-	.	.	.	2G/)	.	.	8B-/	Er	-de-	4.b-\	Noth	-li
.	.	.	.	.	.	.	.	.	.	8c/	vns	-li-	.	.	.
.	.	.	.	.	.	.	.	.	.	8d\	zu	-um	.	.	.
.	.	.	.	.	.	.	.	.	.	8e\	be-	fer-	8b-\	weiß	fi-
*	*	*	*	*	*	*	*custos:F	*Xij	*Xij	*	*	*	*	*	*
!	!	!	!	!	!	!	!LO:LB:g=original	!	!	!	!	!	!	!	!
=17-	=17-	=17-	=17-	=17-	=17-	=17-	=17-	=17-	=17-	=17-	=17-	=17-	=17-	=17-	=17-
2AA/	2AA/	.	.	4A/	in	ut	4F/	in	ut	4f\	-ſchü-	-vo-	8a\	et	-de-
.	.	.	.	.	.	.	.	.	.	.	.	.	8b-\	vns	-li-
.	.	.	.	8A/	al-	o-	8F/	al-	o-	4f\	-(gr)en	-rum,	8.cc\	zu	-um
.	.	.	.	8G/	-ler	-cu-	8E/	-ler	-cu-	.	.	.	.	.	.
.	.	.	.	.	.	.	.	.	.	.	.	.	16cc\	be-	fer-
*	*	*	*	*	*	*	*	*	*	*	*	*Xij	*	*	*
2BB-/	2BB-/	.	.	4F/	Noth	-li	2D/	Noth	-li	4f\	in	in	4b-\	-ſchü(g-	-vo-
.	.	.	.	4r	.	.	.	.	.	8f\	al-	ma-	4b-\	-r)en	-rum,
.	.	.	.	.	.	.	.	.	.	8d\	-ler	-ni-	.	.	.
*	*	*	*	*	*ij	*ij	*	*ij	*ij	*	*	*	*custos:cc	*	*
!	!	!	!	!	!	!	!	!	!	!	!	!	!LO:LB:g=original	!	!
0C	0C	.	.	4c\	in	ut	4E/	in	ut	8g\	Noth	-bus	4r	.	.
.	.	.	.	.	.	.	.	.	.	8f\	weiß	Do-	.	.	.
.	.	.	.	8c\	al-	o-	8.E/	al-	o-	8e\	Er	-mi-	4cc\	in	ut
.	.	.	.	8B-y\	-ler	-cu-	.	.	.	8d\	vns	-no-	.	.	.
.	.	.	.	.	.	.	16E/	-ler	-cu-	.	.	.	.	.	.
*	*	*	*	*	*	*	*	*	*	*custos:c	*	*	*	*	*
!	!	!	!	!	!	!	!	!	!	!LO:LB:g=original	!	!	!	!	!
.	.	.	.	4.A/	Noth	-li	4.F/	Noth	-li	4c/	.	-rum	8cc\	al-	o-
.	.	.	.	.	.	.	.	.	.	.	.	.	8b-\	-ler	-cu-
.	.	.	.	.	.	.	.	.	.	8c/	zu	ſu-	4.a\	Noth	-li
*	*	*	*	*	*Xij	*Xij	*	*Xij	*Xij	*	*	*	*	*	*
.	.	.	.	8G/	weiß	fi-	8G/	fan	fi-	8c/	be-	-o-	.	.	.
=18-	=18-	=18-	=18-	=18-	=18-	=18-	=18-	=18-	=18-	=18-	=18-	=18-	=18-	=18-	=18-
.	.	.	.	8F/	Et	-de-	8.A/	ſei-	-de-	2.c/	-ſchü-	.	.	.	.
.	.	.	.	8F/	vns	-li-	.	.	.	.	.	.	8a\	weiß	fi-
.	.	.	.	.	.	.	16B-\	-ne	-li-	.	.	.	.	.	.
.	.	.	.	8E/	zu	-um	8c\	hülf-	-um	.	.	.	8g/	et	-de-
.	.	.	.	8D/	be-	fer-	8d\	-fe	fer-	.	.	.	8f/	vns	-li-
.	.	.	.	2E/	-ſchü(g-	-vo-	2c\	nu(h-	-vo-	.	.	.	8g/	zu	-um
.	.	.	.	.	.	.	.	.	.	.	.	.	8a\	be-	fer-
.	.	.	.	.	.	.	.	.	.	4G/	.	.	4g/	-ſchü(g-	-vo-
!LO:TX:t=P:problem:kreska pseudotaktowa	!	!	!	!	!	!	!	!	!	!	!	!	!	!	!
1FF	1FF	-(gr)en	-rum,	1F	-r)en	-rum,	1c	-r)en	-rum,	1A	-(gr)en	-rum,	1f	-r)en	-rum,
*	*	*	*	*	*	*	*	*	*	*	*Xij	*	*	*Xij	*Xij
=19-	=19-	=19-	=19-	=19-	=19-	=19-	=19-	=19-	=19-	=19-	=19-	=19-	=19-	=19-	=19-
4F\	00r	.	.	00r	.	.	0r	.	.	0r	.	.	4r	.	.
4C/	.	.	.	.	.	.	.	.	.	.	.	.	4cc\	Er	in
4D/	.	.	.	.	.	.	.	.	.	.	.	.	4.b-\	ſe-	ma-
4E\	.	.	.	.	.	.	.	.	.	.	.	.	.	.	.
.	.	.	.	.	.	.	.	.	.	.	.	.	8b-\	-get	-nu
4F\	.	.	.	.	.	.	.	.	.	.	.	.	4a\	hand	Do-
4AA/	.	.	.	.	.	.	.	.	.	.	.	.	4a\	zu	-mi-
4BB-/	.	.	.	.	.	.	.	.	.	.	.	.	2g/	Werc-	-no-
!LO:TX:t=P:problem:kreska pseudotaktowa	!	!	!	!	!	!	!	!	!	!	!	!	!	!	!
4C/	.	.	.	.	.	.	.	.	.	.	.	.	.	.	.
*custos:FF	*	*	*	*	*	*	*	*	*	*	*	*	*	*	*
!LO:LB:g=original	!	!	!	!	!	!	!	!	!	!	!	!	!	!	!
=20-	=20-	=20-	=20-	=20-	=20-	=20-	=20-	=20-	=20-	=20-	=20-	=20-	=20-	=20-	=20-
4FF/	.	.	.	.	.	.	1r	.	.	4r	.	.	2f/	-te	-rum,
4AA/	.	.	.	.	.	.	.	.	.	4c/	Er	do-	.	.	.
4BB-/	.	.	.	.	.	.	.	.	.	4d\	vn-	-nec	2r	.	.
4C/	.	.	.	.	.	.	.	.	.	4e\	-ſer	ip-	.	.	.
4D/	.	.	.	.	.	.	2r	.	.	8f\	Gott	-ſe	0r	.	.
.	.	.	.	.	.	.	.	.	.	8a\	ver-	mi-	.	.	.
4BB-/	.	.	.	.	.	.	.	.	.	8g\	-blei-	-ſe-	.	.	.
.	.	.	.	.	.	.	.	.	.	8f\	-bet	-re-	.	.	.
4C/	.	.	.	.	.	.	4r	.	.	8e\	vn-	-a-	.	.	.
.	.	.	.	.	.	.	.	.	.	8f\	-ſer	-tur	.	.	.
!LO:TX:t=P:problem:kreska pseudotaktowa	!	!	!	!	!	!	!	!	!	!	!	!	!	!	!
4BB-/	.	.	.	.	.	.	4d\	Er	au-	2g\	Stär-	no-	.	.	.
*	*	*	*	*custos:A	*	*	*	*	*	*	*	*	*	*	*
!	!	!	!	!LO:LB:g=original	!	!	!	!	!	!	!	!	!	!	!
=21-	=21-	=21-	=21-	=21-	=21-	=21-	=21-	=21-	=21-	=21-	=21-	=21-	=21-	=21-	=21-
2AA/	1r	.	.	4r	.	.	4.c\	le-	-xi-	.	.	.	.	.	.
.	.	.	.	4A/	Er	au-	.	.	.	4f#X\	.	.	.	.	.
.	.	.	.	.	.	.	8c\	-get	-li-	.	.	.	.	.	.
2GG/	.	.	.	4.G/	le-	-xi-	4B-\	hand	-um	2g\	-cte	-ſtri,	.	.	.
.	.	.	.	.	.	.	4B-\	zu	qve	.	.	.	.	.	.
.	.	.	.	8G/	-get	-li-	.	.	.	.	.	.	.	.	.
4AA/	4r	.	.	8F/	hand	-um	2A/	Wer-	noſt-	0r	.	.	1r	.	.
.	.	.	.	8F/	zu	qve	.	.	.	.	.	.	.	.	.
4AA/	4AA/	Er	do-	2F/	Wer-	no-	.	.	.	.	.	.	.	.	.
4BB-/	4BB-/	vn-	-nec	.	.	.	2G/	-cte	-rum,	.	.	.	.	.	.
!LO:TX:t=P:problem:kreska pseudotaktowa	!	!	!	!	!	!	!	!	!	!	!	!	!	!	!
4C/	4C/	-ſer	ip-	4E/	.	.	.	.	.	.	.	.	.	.	.
*	*	*	*	*	*	*	*custos:C	*	*	*	*	*	*	*	*
!	!	!	!	!	!	!	!LO:LB:g=original	!	!	!	!	!	!	!	!
=22-	=22-	=22-	=22-	=22-	=22-	=22-	=22-	=22-	=22-	=22-	=22-	=22-	=22-	=22-	=22-
2D/	8D/	Gott	-ſe	4F/	-cte	-ſtrum,	0r	.	.	.	.	.	2r	.	.
.	8F\	ver-	mi-	.	.	.	.	.	.	.	.	.	.	.	.
.	8E\	-blei-	-ſe-	4r	.	.	.	.	.	.	.	.	.	.	.
.	8D/	-bet	-re-	.	.	.	.	.	.	.	.	.	.	.	.
4C/	8E\	vn-	-a-	2r	.	.	.	.	.	.	.	.	4r	.	.
.	8F\	-ſer	-tur	.	.	.	.	.	.	.	.	.	.	.	.
*	*	*	*	*	*	*	*	*	*	*	*	*	*	*ij	*
4BB-/	2G\	Stär-	no-	.	.	.	.	.	.	.	.	.	4dd\	Er	ad
*	*	*	*	*	*	*	*	*	*	*	*	*	*custos:cc	*	*
!	!	!	!	!	!	!	!	!	!	!	!	!	!LO:LB:g=original	!	!
2AA/	.	.	.	2r	.	.	.	.	.	4r	.	.	4.cc\	ſe-	De-
.	4F#X\	.	.	.	.	.	.	.	.	4a\	Er	au-	.	.	.
.	.	.	.	.	.	.	.	.	.	.	.	.	8cc\	-get	-um
*	*	*	*	*	*	*	*	*	*	*custos:g	*	*	*	*	*
!LO:TX:t=P:problem:kreska pseudotaktowa	!	!	!	!	!	!	!	!	!	!LO:LB:g=original	!	!	!	!	!
2G\	2G\	-cte	-ſtri,	4r	.	.	.	.	.	4.g\	ſe-	-xi-	4b-\	hand	ſo-
.	.	.	.	4G/	Er	do-	.	.	.	.	.	.	4b-\	zu	-lum
.	.	.	.	.	.	.	.	.	.	8g\	-get	-li-	.	.	.
*	*custos:BB-	*	*	*	*	*	*	*	*	*	*	*	*	*	*
!	!LO:LB:g=original	!	!	!	!	!	!	!	!	!	!	!	!	!	!
=23-	=23-	=23-	=23-	=23-	=23-	=23-	=23-	=23-	=23-	=23-	=23-	=23-	=23-	=23-	=23-
2D/	0r	.	.	4A/	vn-	-nec	2r	.	.	4.fny\	hand	-um	2a\	Werc-	noſ-
.	.	.	.	4B-\	-ſer	ip-	.	.	.	.	.	.	.	.	.
.	.	.	.	.	.	.	.	.	.	8f\	zu	qve	.	.	.
4C/	.	.	.	4c\	Gott	-ſe	4r	.	.	2e\	Werc-	noſ-	2g/	-te	-trum,
*	*	*	*	*	*ij	*ij	*	*	*	*	*	*	*	*Xij	*
4C/	.	.	.	4E/	Er	do-	4C/	Er	do-	.	.	.	.	.	.
4BB-/	.	.	.	4F/	vn-	-nec	4D/	vn-	-nec	2d\	-te	-trum,	0r	.	.
4GG/	.	.	.	4G/	-ſer	ip-	4E/	-ſer	ip-	.	.	.	.	.	.
*	*	*	*	*custos:A	*	*	*	*	*	*	*	*	*	*	*
!	!	!	!	!LO:LB:g=original	!	!	!	!	!	!	!	!	!	!	!
4FF/	.	.	.	8A/	Gott	-ſe	8F/	Gott	-ſe	2r	.	.	.	.	.
*	*	*ij	*ij	*	*Xij	*Xij	*	*	*	*	*	*	*	*	*
.	.	.	.	8c\	ver-	mi-	8A/	ver-	mi-	.	.	.	.	.	.
!LO:TX:t=P:problem:kreska pseudotaktowa	!	!	!	!	!	!	!	!	!	!	!	!	!	!	!
4BB-/	.	.	.	8B-\	-blei-	-ſe-	8G/	-blei-	-ſe-	.	.	.	.	.	.
.	.	.	.	8A/	-bet	-re-	8F/	-bet	-re-	.	.	.	.	.	.
*custos:C	*	*	*	*	*	*	*	*	*	*	*	*	*	*	*
!LO:LB:g=original	!	!	!	!	!	!	!	!	!	!	!	!	!	!	!
=24-	=24-	=24-	=24-	=24-	=24-	=24-	=24-	=24-	=24-	=24-	=24-	=24-	=24-	=24-	=24-
4C/	4r	.	.	4G/	vn-	-a-	8E/	vn-	-a-	0r	.	.	.	.	.
.	.	.	.	.	.	.	8F/	-ſer	-tur	.	.	.	.	.	.
4BB-/	4BB-/	Er	do-	4G/	-ſer	-tur	2G/	Stär-	no-	.	.	.	.	.	.
4C/	4C/	vn-	-nec	2A/	Stär-	no-	.	.	.	.	.	.	.	.	.
4D/	4D/	-ſer	ip-	.	.	.	4F#X/	.	.	.	.	.	.	.	.
4GG/	8GG/	Gott	-ſe	2G/	-cte	-ſtri,	2G/	-cte	-ſtri,	.	.	.	2r	.	.
.	8G\	ver-	mi-	.	.	.	.	.	.	.	.	.	.	.	.
4AA/	8Fny\	-blei-	-ſe-	.	.	.	.	.	.	.	.	.	.	.	.
.	8E\	-bet	-re-	.	.	.	.	.	.	.	.	.	.	.	.
4BB-/	8D/	vn-	-a-	2r	.	.	2r	.	.	.	.	.	4r	.	.
.	8E\	-ſer	-tur	.	.	.	.	.	.	.	.	.	.	.	.
!LO:TX:t=P:problem:kreska pseudotaktowa	!	!	!	!	!	!	!	!	!	!	!	!	!	!	!
4AA/	2F\	Stär-	no-	.	.	.	.	.	.	.	.	.	4f/	Er	do-
=25-	=25-	=25-	=25-	=25-	=25-	=25-	=25-	=25-	=25-	=25-	=25-	=25-	=25-	=25-	=25-
4BB-/	.	.	.	0r	.	.	1r	.	.	4r	.	.	4g/	vn-	-nec
*	*	*	*	*	*	*	*	*	*	*	*ij	*ij	*	*	*
4C/	4E\	.	.	.	.	.	.	.	.	4g\	Er	au-	4g/	-ſer	mi-
2FF/	2F\	-cte	-ſtri,	.	.	.	.	.	.	4.f\	ſe-	-xi-	8a\	Gott	-ſe-
.	.	.	.	.	.	.	.	.	.	.	.	.	8cc\	ver-	-re-
.	.	.	.	.	.	.	.	.	.	.	.	.	8b-\	-blei-	-a-
.	.	.	.	.	.	.	.	.	.	8f\	-get	-li-	8a\	-bet	-tur
4BB-/	1r	.	.	.	.	.	4r	.	.	4d\	hand	-um	8b-\	vn-	ip-
.	.	.	.	.	.	.	.	.	.	.	.	.	8cc\	-ſer	-ſe
4F\	.	.	.	.	.	.	4Fny/	Er	do-	4f\	zu	qve	2dd\	Stär-	no-
4G\	.	.	.	.	.	.	4G/	vn-	-nec	2e\	Werc-	noſ-	.	.	.
!	!	!	!	!	!	!	!LO:TX:b:t=Gott	!	!	!	!	!	!	!	!
!LO:TX:t=P:problem:kreska pseudotaktowa	!	!	!	!	!	!	!	!	!	!	!	!	!	!	!
4A\	.	.	.	.	.	.	4A/	-ſer	i-	.	.	.	4cc#X\	.	.
*	*	*Xij	*Xij	*	*	*	*custos:D	*	*	*	*	*	*	*	*
!	!	!	!	!	!	!	!LO:PB:g=original	!	!	!	!	!	!	!	!
=26-	=26-	=26-	=26-	=26-	=26-	=26-	=26-	=26-	=26-	=26-	=26-	=26-	=26-	=26-	=26-
2D/	4r	.	.	4r	.	.	8D/	Gott	-pſe	2d\	-te	-trum,	2dd\	-cte	-ſtri,
.	.	.	.	.	.	.	8d\	ver-	mi-	.	.	.	.	.	.
.	4D/	Er	au-	4F/	Er	do-	8c\	-blei-	-ſe-	.	.	.	.	.	.
.	.	.	.	.	.	.	8B-\	-bet	-re-	.	.	.	.	.	.
2C/	4.C/	le-	-xi-	4G/	vn-	-nec	4c\	vn-	-a-	2r	.	.	4r	.	.
*	*	*	*	*	*	*	*	*	*	*	*Xij	*Xij	*	*ij	*ij
.	.	.	.	4A/	-ſer	ip-	4c\	-ſer	-tur	.	.	.	4e/	Er	do-
.	8C/	-get	-li-	.	.	.	.	.	.	.	.	.	.	.	.
*	*	*	*	*	*	*	*	*	*	*	*	*	*custos:f	*	*
!	!	!	!	!	!	!	!	!	!	!	!	!	!LO:LB:g=original	!	!
2BB-/	4.BB-/	hand	-um	8D/	Gott	-ſe	4d\	Stär-	noſ-	4r	.	.	4f/	vn-	-nec
.	.	.	.	8d\	ver-	mi-	.	.	.	.	.	.	.	.	.
.	.	.	.	8c\	-blei-	-ſe-	4D/	-cte	-tri,	4d\	Er	do-	4g/	-ſer	mi-
.	8BB-/	zu	qve	8B-\	-bet	-re-	.	.	.	.	.	.	.	.	.
!LO:TX:t=P:problem:kreska pseudotaktowa	!	!	!	!	!	!	!	!	!	!	!	!	!	!	!
2AA/	2AA/	War-	noſ-	4.c\	vn-	-a-	2r	.	.	4e\	vn-	-nec	8a\	Gott	-ſe-
.	.	.	.	.	.	.	.	.	.	.	.	.	8ccny\	ver-	-re-
.	.	.	.	.	.	.	.	.	.	4f#X\	-ſer	ip-	8b-\	-blei-	-a-
.	.	.	.	8C/	-ſer	-tur	.	.	.	.	.	.	8a\	-bet	-tur
*	*	*	*	*custos:D	*	*	*	*	*	*	*	*	*	*	*
!	!	!	!	!LO:LB:g=original	!	!	!	!	!	!	!	!	!	!	!
=27-	=27-	=27-	=27-	=27-	=27-	=27-	=27-	=27-	=27-	=27-	=27-	=27-	=27-	=27-	=27-
2GG/	2GG/	-cte	-trum,	4D/	Stär-	no-	4r	.	.	8g\	Gott	-ſe	2b-\	vn-	ip-
.	.	.	.	.	.	.	.	.	.	8d\	ver-	mi-	.	.	.
*	*	*	*	*	*	*	*	*ij	*ij	*	*	*	*	*	*
.	.	.	.	4D/	-cte	-ſtri,	4G/	vn-	ip-	8g\	-blei-	-ſe-	.	.	.
.	.	.	.	.	.	.	.	.	.	8fny\	-bet	-re-	.	.	.
*	*	*	*	*	*	*	*	*	*	*custos:e	*	*	*	*	*
!	!	!	!	!	!	!	!	!	!	!LO:LB:g=original	!	!	!	!	!
2AA/	4r	.	.	2r	.	.	4A/	-ſer	-ſe	8e\	vn-	-a-	2a\	-ſer	-ſe
.	.	.	.	.	.	.	.	.	.	8c/	-ſer	-tur	.	.	.
.	4AA/	Er	do-	.	.	.	4c\	Gott	mi-	2f\	Stär-	no-	.	.	.
4BB-/	4BB-/	vn-	-nec	4r	.	.	8B-\	ver-	-ſe-	.	.	.	2g/	Stär-	no-
.	.	.	.	.	.	.	8d\	-blei-	-re-	.	.	.	.	.	.
!	!LO:TX:b:t=Gott	!	!	!	!	!	!	!	!	!	!	!	!	!	!
*	*	*	*	*	*ij	*ij	*	*	*	*	*	*	*	*	*
4C/	4C/	-ſer	i-	4c\	Er	do-	8c\	-bet	-a-	4e\	.	.	.	.	.
.	.	.	.	.	.	.	8B-\	vn-	-tur	.	.	.	.	.	.
*	*custos:D	*	*	*	*	*	*	*	*	*	*	*	*	*	*
!LO:TX:t=P:problem:kreska pseudotaktowa	!LO:PB:g=original	!	!	!	!	!	!	!	!	!	!	!	!	!	!
2D/	8D/	Gott	-pſe	4F/	vn-	-nec	4A/	-ſer	no-	2f\	-cte	-ſtri,	4.f/	.	.
.	8F\	ver-	mi-	.	.	.	.	.	.	.	.	.	.	.	.
.	8E\	-blei-	-ſe-	4G/	-ſer	ip-	4B-\	Stär-	-ſtri,	.	.	.	.	.	.
.	8D/	-bet	-re-	.	.	.	.	.	.	.	.	.	8f/	.	.
*	*	*	*	*	*	*	*	*	*Xij	*	*	*	*	*	*
=28-	=28-	=28-	=28-	=28-	=28-	=28-	=28-	=28-	=28-	=28-	=28-	=28-	=28-	=28-	=28-
4C/	4C/	vn-	-a-	8A/	Gott	-ſe	4c\	-cte	mi-	0r	.	.	4e/	.	.
.	.	.	.	8c\	ver-	mi-	.	.	.	.	.	.	.	.	.
*	*	*	*	*	*	*	*	*Xij	*	*	*	*	*	*	*
4D/	4D/	-ſer	-tur	8B-\	-blei-	-ſe-	8F/	vn-	-ſe-	.	.	.	2f/	.	.
.	.	.	.	8A/	-bet	-re-	8F/	-ſer	-re-	.	.	.	.	.	.
2C/	2C/	ſtär-	noſ-	8A/	vn-	-a-	2c\	Stär-	-a-	.	.	.	.	.	.
.	.	.	.	8G/	-ſer	-tur	.	.	.	.	.	.	.	.	.
.	.	.	.	4G/	Stär-	no-	.	.	.	.	.	.	4e/	.	.
!LO:TX:t=P:problem:kreska pseudotaktowa	!	!	!	!	!	!	!	!	!	!	!	!	!	!	!
1FF	1FF	-cte	-tri,	1F	-cte	-ſtri,	1A	-cte	-tur	.	.	.	1f	-cte	-ſtri,
*custos:BB-	*	*	*	*	*	*	*custos:c	*	*	*	*	*	*	*	*
!LO:PB:g=original	!	!	!	!	!	!	!LO:LB:g=original	!	!	!	!	!	!	!	!
=29-	=29-	=29-	=29-	=29-	=29-	=29-	=29-	=29-	=29-	=29-	=29-	=29-	=29-	=29-	=29-
*M3/2	*M3/2	*	*	*M3/2	*Xij	*Xij	*M3/2	*	*	*M3/2	*	*	*M3/2	*Xij	*Xij
*	*met(3)	*	*	*met(3)	*	*	*met(3)	*	*	*	*	*	*	*	*
2BB-/	00.r	.	.	00.r	.	.	00.r	.	.	2r	.	.	00.r	.	.
2D/	.	.	.	.	.	.	.	.	.	2f\	Er	Ju-	.	.	.
2F\	.	.	.	.	.	.	.	.	.	2a\	leſ-	-ſte	.	.	.
=30-	=30-	=30-	=30-	=30-	=30-	=30-	=30-	=30-	=30-	=30-	=30-	=30-	=30-	=30-	=30-
2A\	.	.	.	.	.	.	.	.	.	2e\	-ſet	o(b)	.	.	.
2E\	.	.	.	.	.	.	.	.	.	2g\	ſein-	De-	.	.	.
!LO:TX:t=P:problem:kreska pseudotaktowa	!	!	!	!	!	!	!	!	!	!	!	!	!	!	!
2G\	.	.	.	.	.	.	.	.	.	2d\	-ne	-us,	.	.	.
=31-	=31-	=31-	=31-	=31-	=31-	=31-	=31-	=31-	=31-	=31-	=31-	=31-	=31-	=31-	=31-
2D/	.	.	.	.	.	.	.	.	.	2f\	Wacht	no-	.	.	.
2C/	.	.	.	.	.	.	.	.	.	(4e\	nie-	-ſtri	.	.	.
.	.	.	.	.	.	.	.	.	.	4f\)	.	.	.	.	.
2GG/	.	.	.	.	.	.	.	.	.	(4g\	-mais	mi-	.	.	.
.	.	.	.	.	.	.	.	.	.	4f\)	.	.	.	.	.
=32-	=32-	=32-	=32-	=32-	=32-	=32-	=32-	=32-	=32-	=32-	=32-	=32-	=32-	=32-	=32-
2BB-/	.	.	.	.	.	.	.	.	.	(4e\	ver	-ſe-	.	.	.
.	.	.	.	.	.	.	.	.	.	4d\)	.	.	.	.	.
!LO:TX:t=P:problem:kreska pseudotaktowa	!	!	!	!	!	!	!	!	!	!	!	!	!	!	!
1AA	.	.	.	.	.	.	.	.	.	1e	flei-	-re-	.	.	.
=33-	=33-	=33-	=33-	=33-	=33-	=33-	=33-	=33-	=33-	=33-	=33-	=33-	=33-	=33-	=33-
1D	00.r	.	.	2r	.	.	(4d\	Er	de-	2d\	-nen	-re	0.r	.	.
.	.	.	.	.	.	.	4e\)	.	.	.	.	.	.	.	.
.	.	.	.	2r	.	.	(4f\	reiſ-	-ſpe-	2r	.	.	.	.	.
.	.	.	.	.	.	.	4e\)	.	.	.	.	.	.	.	.
2F\	.	.	.	(>4A/	Er	de-	(4c\	-ſet-	-cti	2r	.	.	.	.	.
.	.	.	.	4B-\)	.	.	4d\)	.	.	.	.	.	.	.	.
*	*	*	*	*custos:c	*	*	*	*	*	*	*	*	*	*	*
!	!	!	!	!LO:LB:g=original	!	!	!	!	!	!	!	!	!	!	!
=34-	=34-	=34-	=34-	=34-	=34-	=34-	=34-	=34-	=34-	=34-	=34-	=34-	=34-	=34-	=34-
!	!	!	!	!	!	!	!	!	!	!	!	!	!LO:TX:b:t=Die	!	!
2C/	.	.	.	(>4c\	reiſ-	-ſpe-	(4e-X\	-ie	e-	0.r	.	.	.	.	.
.	.	.	.	4B-\)	.	.	4d\)	.	.	.	.	.	.	.	.
2E-X\	.	.	.	(>4G/	-ſet-	-cti	(4B-\	der	-nim	.	.	.	.	.	.
.	.	.	.	4A/)	.	.	4c\)	.	.	.	.	.	.	.	.
!LO:TX:t=P:problem:kreska pseudotaktowa	!	!	!	!	!	!	!	!	!	!	!	!	!	!	!
2BB-/	.	.	.	(>4B-\	-ie	e-	(4d\	zeit	ac	.	.	.	.	.	.
.	.	.	.	4A/)	.	.	4c\)	.	.	.	.	.	.	.	.
*	*	*	*	*	*	*	*	*	*	*	*	*	*custos:dd	*	*
!	!	!	!	!	!	!	!	!	!	!	!	!	!LO:LB:g=original	!	!
=35-	=35-	=35-	=35-	=35-	=35-	=35-	=35-	=35-	=35-	=35-	=35-	=35-	=35-	=35-	=35-
2D/	.	.	.	(>4F/	der	-nim	(4A/	aus	re-	.	.	.	1.r	.	.
.	.	.	.	4G/)	.	.	4B-\)	.	.	.	.	.	.	.	.
2AA/	.	.	.	(>4A/	zeit	ac	(4c\	Roth	-je-	.	.	.	.	.	.
.	.	.	.	4G/)	.	.	4B-\)	.	.	.	.	.	.	.	.
2C/	.	.	.	(>4E/	aus	re-	(>4G/	die	-cti	.	.	.	.	.	.
.	.	.	.	4F/)	.	.	4A/)	.	.	.	.	.	.	.	.
=36-	=36-	=36-	=36-	=36-	=36-	=36-	=36-	=36-	=36-	=36-	=36-	=36-	=36-	=36-	=36-
1G	.	.	.	2.G/	Roth	-jec-	2B-\	.	.	1.r	.	.	2dd\	Die	(et)
.	.	.	.	.	.	.	1A	Gei-	ſu-	.	.	.	(4cc\	wier	an-
.	.	.	.	4G/	die	-ti	.	.	.	.	.	.	4b-\)	.	.
!LO:TX:t=P:problem:kreska pseudotaktowa	!	!	!	!	!	!	!	!	!	!	!	!	!	!	!
2F#X\	.	.	.	2F#X/	Gei-	ſu-	.	.	.	.	.	.	(4cc\	ihn	-cho-
.	.	.	.	.	.	.	.	.	.	.	.	.	4a\)	.	.
*	*	*	*	*	*	*	*	*	*	*custos:g	*	*	*	*	*
!	!	!	!	!	!	!	!	!	!	!LO:LB:g=original	!	!	!	!	!
=37-	=37-	=37-	=37-	=37-	=37-	=37-	=37-	=37-	=37-	=37-	=37-	=37-	=37-	=37-	=37-
!	!LO:TX:t=P:problem: VHV nie wyświetla pauzy	!	!	!	!	!	!	!	!	!	!	!	!	!	!
2G\	1.r	.	.	2G/	-nen	-mus,	2G/	-nen	-mus,	2g\	Die	(et)	2b-\	recht	-ra
1D	.	.	.	2r	.	.	2r	.	.	(4f\	wier	an-	2r	.	.
.	.	.	.	.	.	.	.	.	.	4e\)	.	.	.	.	.
.	.	.	.	2r	.	.	2r	.	.	(4f\	ihn	-cho-	(4a\	wir	no-
.	.	.	.	.	.	.	.	.	.	4g\)	.	.	4b-\)	.	.
=38-	=38-	=38-	=38-	=38-	=38-	=38-	=38-	=38-	=38-	=38-	=38-	=38-	=38-	=38-	=38-
2C/	2C/	Er	ſo-	0.r	.	.	0.r	.	.	(4a\	auff	-ra	(4cc\	ihn	-ſtrae
.	.	.	.	.	.	.	.	.	.	4g\)	.	.	4b-\)	.	.
!LO:TX:t=P:problem:kreska pseudotaktowa	!	!	!	!	!	!	!	!	!	!	!	!	!	!	!
1D	2D/	wird	-la-	.	.	.	.	.	.	(4f#X\	recht	ſa-	(4a\	recht	ſa-
.	.	.	.	.	.	.	.	.	.	4e\)	.	.	4g/)	.	.
.	2D/	vns	-ti-	.	.	.	.	.	.	2f#X\	men-	-lu-	2a\	men-	-lu-
*custos:E	*	*	*	*	*	*	*	*	*	*	*	*	*	*	*
!LO:LB:g=original	!	!	!	!	!	!	!	!	!	!	!	!	!	!	!
=39-	=39-	=39-	=39-	=39-	=39-	=39-	=39-	=39-	=39-	=39-	=39-	=39-	=39-	=39-	=39-
1Eny	2.E\	noch	-um	.	.	.	.	.	.	2g\	-nen	-tis,	2g/	-nen	-tis,
.	.	.	.	.	.	.	.	.	.	2r	.	.	2r	.	.
.	4D/	die	re-	.	.	.	.	.	.	.	.	.	.	.	.
2C/	4E\	Gon-	-fu-	.	.	.	.	.	.	2r	.	.	2r	.	.
.	4F\	-ne	-gi-	.	.	.	.	.	.	.	.	.	.	.	.
*	*	*	*	*	*	*	*custos:d	*	*	*	*	*	*	*	*
!	!	!	!	!	!	!	!LO:LB:g=original	!	!	!	!	!	!	!	!
=40-	=40-	=40-	=40-	=40-	=40-	=40-	=40-	=40-	=40-	=40-	=40-	=40-	=40-	=40-	=40-
!	!	!	!	!LO:TX:t=P:problem: VHV nie wyświetla pauzy	!	!	!	!	!	!	!	!	!	!	!
1G	4G\	laſ-	-um	1.r	.	.	2d\	die	(et)	00.r	.	.	00.r	.	.
.	4G\	-ſen	qve	.	.	.	.	.	.	.	.	.	.	.	.
.	2G\	ſchei-	no-	.	.	.	(4c\	wir	an-	.	.	.	.	.	.
.	.	.	.	.	.	.	4B-\)	.	.	.	.	.	.	.	.
!LO:TX:t=P:problem:kreska pseudotaktowa	!	!	!	!	!	!	!	!	!	!	!	!	!	!	!
2F#X\	2F#X\	.	.	.	.	.	(4c\	ihn	-cho-	.	.	.	.	.	.
.	.	.	.	.	.	.	4A/)	.	.	.	.	.	.	.	.
*	*custos:G	*	*	*	*	*	*	*	*	*	*	*	*	*	*
!	!LO:LB:g=original	!	!	!	!	!	!	!	!	!	!	!	!	!	!
=41-	=41-	=41-	=41-	=41-	=41-	=41-	=41-	=41-	=41-	=41-	=41-	=41-	=41-	=41-	=41-
2G\	2G\	-nen	-ſtrum,	2G/	die	(et)	2B-\	auch	-ra	.	.	.	.	.	.
1D	2r	.	.	(>4Fny/	wir	an-	2r	.	.	.	.	.	.	.	.
.	.	.	.	4E/)	.	.	.	.	.	.	.	.	.	.	.
.	2r	.	.	(>4F/	ihn	-cho-	2r	.	.	.	.	.	.	.	.
.	.	.	.	4D/)	.	.	.	.	.	.	.	.	.	.	.
*	*	*	*	*custos:E	*	*	*	*	*	*	*	*	*	*	*
!	!	!	!	!LO:LB:g=original	!	!	!	!	!	!	!	!	!	!	!
=42-	=42-	=42-	=42-	=42-	=42-	=42-	=42-	=42-	=42-	=42-	=42-	=42-	=42-	=42-	=42-
2C/	00.r	.	.	2E/	auch	-ra	2r	.	.	.	.	.	.	.	.
*	*	*	*	*	*ij	*ij	*	*ij	*ij	*	*	*	*	*	*
2FF/	.	.	.	2c\	die	(et)	2A/	die	(et)	.	.	.	.	.	.
!LO:TX:t=P:problem:kreska pseudotaktowa	!	!	!	!	!	!	!	!	!	!	!	!	!	!	!
2GG/	.	.	.	(4B-\	wir	an-	(>4G/	wir	an-	.	.	.	.	.	.
.	.	.	.	4A/)	.	.	4F/)	.	.	.	.	.	.	.	.
=43-	=43-	=43-	=43-	=43-	=43-	=43-	=43-	=43-	=43-	=43-	=43-	=43-	=43-	=43-	=43-
2GG/	.	.	.	(4B-\	ihn	-cho-	(>4G/	ihn	-cho-	.	.	.	.	.	.
.	.	.	.	4G/)	.	.	4E/)	.	.	.	.	.	.	.	.
2FF/	.	.	.	(>4A/	auch	-ra	1F	auch	-ra	.	.	.	.	.	.
.	.	.	.	4G/)	.	.	.	.	.	.	.	.	.	.	.
*	*	*	*	*	*Xij	*Xij	*	*	*	*	*	*	*	*	*
2Fny\	.	.	.	(>4A/	recht	ſa-	.	.	.	.	.	.	.	.	.
.	.	.	.	4B-\)	.	.	.	.	.	.	.	.	.	.	.
*	*	*	*	*	*	*	*	*Xij	*Xij	*	*	*	*	*	*
=44-	=44-	=44-	=44-	=44-	=44-	=44-	=44-	=44-	=44-	=44-	=44-	=44-	=44-	=44-	=44-
2E\	.	.	.	1c	men-	-lu-	2E/	recht	ſa-	2c/	Er	ſo-	0.r	.	.
1D	.	.	.	.	.	.	1D	men-	-lu-	2d\	wird	-la-	.	.	.
.	.	.	.	2Bn\	.	.	.	.	.	2d\	vns	-ti-	.	.	.
=45-	=45-	=45-	=45-	=45-	=45-	=45-	=45-	=45-	=45-	=45-	=45-	=45-	=45-	=45-	=45-
1.C	.	.	.	2c\	-nen	-tis,	2C/	-nen	-tis,	2.e\	auch	-um	.	.	.
.	.	.	.	2r	.	.	2r	.	.	.	.	.	.	.	.
.	.	.	.	.	.	.	.	.	.	4d\	die	re-	.	.	.
.	.	.	.	2r	.	.	2r	.	.	4e\	Gon-	-fu-	.	.	.
.	.	.	.	.	.	.	.	.	.	4fny\	-ne	-gi-	.	.	.
*	*	*	*	*	*	*	*	*	*	*custos:g	*	*	*	*	*
!	!	!	!	!	!	!	!	!	!	!LO:LB:g=original	!	!	!	!	!
=46-	=46-	=46-	=46-	=46-	=46-	=46-	=46-	=46-	=46-	=46-	=46-	=46-	=46-	=46-	=46-
2BB-/	0.r	.	.	00.r	.	.	0.r	.	.	4g\	laſ-	-um	2g/	Er	So-
.	.	.	.	.	.	.	.	.	.	4g\	-ſen	qve	.	.	.
2C/	.	.	.	.	.	.	.	.	.	2g\	ſchei-	no-	2a\	wird	-la-
!LO:TX:t=P:problem:kreska pseudotaktowa	!	!	!	!	!	!	!	!	!	!	!	!	!	!	!
2D/	.	.	.	.	.	.	.	.	.	2f#X\	.	.	2a\	vns	-ti-
*custos:GG	*	*	*	*	*	*	*	*	*	*	*	*	*custos:b-	*	*
!LO:LB:g=original	!	!	!	!	!	!	!	!	!	!	!	!	!LO:LB:g=original	!	!
=47-	=47-	=47-	=47-	=47-	=47-	=47-	=47-	=47-	=47-	=47-	=47-	=47-	=47-	=47-	=47-
2.GG/	.	.	.	.	.	.	.	.	.	2g\	-nen	-ſtrum,	2.b-\	noch	-um
.	.	.	.	.	.	.	.	.	.	2r	.	.	.	.	.
4FF/	.	.	.	.	.	.	.	.	.	.	.	.	4a\	die	re-
4GG/	.	.	.	.	.	.	.	.	.	2r	.	.	4b-\	Gon-	-fu-
4AA/	.	.	.	.	.	.	.	.	.	.	.	.	4cc\	-ne	-gi-
=48-	=48-	=48-	=48-	=48-	=48-	=48-	=48-	=48-	=48-	=48-	=48-	=48-	=48-	=48-	=48-
!	!LO:TX:t=P:problem: VHV nie wyświetla pauzy	!	!	!	!	!	!LO:TX:t=P:problem: VHV nie wyświetla pauzy	!	!	!	!	!	!	!	!
2BB-/	1.r	.	.	.	.	.	1.r	.	.	1.r	.	.	4dd\	laſ-	-um
.	.	.	.	.	.	.	.	.	.	.	.	.	4dd\	-ſen	qve
2GG/	.	.	.	.	.	.	.	.	.	.	.	.	2dd\	ſchei-	no-
!LO:TX:t=P:problem:kreska pseudotaktowa	!	!	!	!	!	!	!	!	!	!	!	!	!	!	!
2AA/	.	.	.	.	.	.	.	.	.	.	.	.	2cc#X\	.	.
=49-	=49-	=49-	=49-	=49-	=49-	=49-	=49-	=49-	=49-	=49-	=49-	=49-	=49-	=49-	=49-
1D	2r	.	.	.	.	.	2r	.	.	2r	.	.	1.dd	-nen	-ſtrum,
.	2D/	Er	Juſ-	.	.	.	2r	.	.	2r	.	.	.	.	.
2F\	2Fny\	leſ-	-te	.	.	.	(4A/	Er	Tu	(4c/	Er	de-	.	.	.
.	.	.	.	.	.	.	4B-\)	.	.	4d\)	.	.	.	.	.
*	*	*	*	*	*	*	*custos:c	*	*	*	*	*	*	*	*
!	!	!	!	!	!	!	!LO:LB:g=original	!	!	!	!	!	!	!	!
=50-	=50-	=50-	=50-	=50-	=50-	=50-	=50-	=50-	=50-	=50-	=50-	=50-	=50-	=50-	=50-
2C/	2C/	-ſet	o(b)	0.r	.	.	(4c\	reiſ-	-ve-	(4e-X\	reiſ-	-ſpe-	2r	.	.
.	.	.	.	.	.	.	4B-\)	.	.	4d\)	.	.	.	.	.
2E-X\	2E-X\	ſei-	DE-	.	.	.	(>4G/	-ſet-	-rò	(>4B-/	-ſet-	-cti	0r	.	.
.	.	.	.	.	.	.	4A/)	.	.	4c/)	.	.	.	.	.
!LO:TX:t=P:problem:kreska pseudotaktowa	!	!	!	!	!	!	!	!	!	!	!	!	!	!	!
2BB-/	2BB-/	-ne	-US	.	.	.	(4B-\	-ie	-ſpes	(4d\	-ie	e-	.	.	.
.	.	.	.	.	.	.	4A/)	.	.	4c/)	.	.	.	.	.
=51-	=51-	=51-	=51-	=51-	=51-	=51-	=51-	=51-	=51-	=51-	=51-	=51-	=51-	=51-	=51-
2D/	2D/	Wacht	noſ-	.	.	.	(>4F/	der	es	(>4A/	der	-nim	.	.	.
.	.	.	.	.	.	.	4G/)	.	.	4B-/)	.	.	.	.	.
2AA/	2AA/	nie-	-tri	.	.	.	(>4A/	zeit	no-	(>4c/	zeit	(et)	.	.	.
.	.	.	.	.	.	.	4G/)	.	.	4B-/)	.	.	.	.	.
!	!	!	!	!	!	!	!	!	!	!	!	!	!LO:TX:t=P:problem: VHV nie wyświetla pauzy	!	!
!	!	!	!	!	!	!	!	!	!	!	!	!	!LO:N:vis=2	!	!
2C/	2C/	-mais	mi-	.	.	.	(>4E/	ans	-ſtra,	(>4G/	die	re-	1r	.	.
.	.	.	.	.	.	.	4F/)	.	.	4A/)	.	.	.	.	.
=52-	=52-	=52-	=52-	=52-	=52-	=52-	=52-	=52-	=52-	=52-	=52-	=52-	=52-	=52-	=52-
!	!	!	!	!LO:TX:t=P:problem: VHV nie wyświetla pauzy	!	!	!	!	!	!	!	!	!	!	!
2BB-/	2BB-/	ver-	-ſe-	1.r	.	.	2.G/	Roth	vir-	(>4B-/	Gei-	-je-	.	.	.
.	.	.	.	.	.	.	.	.	.	4A/)	.	.	.	.	.
!LO:TX:t=P:problem:kreska pseudotaktowa	!	!	!	!	!	!	!	!	!	!	!	!	!	!	!
1D	1D	-flei-	-re-	.	.	.	.	.	.	(>4B-/	-nen	-cti	2dd\	die	(et)
.	.	.	.	.	.	.	4G/	die	-tus	4G/)	.	.	.	.	.
!	!	!	!	!	!	!	!	!	!	!LO:TX:b:t=Angſt	!	!	!	!	!
.	.	.	.	.	.	.	2F#X/	Gei-	noſ-	2A/	aus	ſu-	(4b-\	wir	an-
.	.	.	.	.	.	.	.	.	.	.	.	.	4a\)	.	.
*custos:GG	*	*	*	*	*	*	*	*	*	*custos:G	*	*	*	*	*
!LO:LB:g=original	!	!	!	!	!	!	!	!	!	!LO:PB:g=original	!	!	!	!	!
=53-	=53-	=53-	=53-	=53-	=53-	=53-	=53-	=53-	=53-	=53-	=53-	=53-	=53-	=53-	=53-
1GG	1GG	-nen	-re,	2r	.	.	1G	-nen	-tra,	2G/	Angſt	-mus	(4b-\	ihn	-cho-
.	.	.	.	.	.	.	.	.	.	.	.	.	4g/	.	.
.	.	.	.	2B-y\	Er	Juſ-	.	.	.	2g\	die	(et)	1a)	.	.
2D/	2r	.	.	2d\	leſ-	-te	2r	.	.	(<4fny\	wir	an-	.	.	.
.	.	.	.	.	.	.	.	.	.	4eny\)	.	.	.	.	.
=54-	=54-	=54-	=54-	=54-	=54-	=54-	=54-	=54-	=54-	=54-	=54-	=54-	=54-	=54-	=54-
2D/	0.r	.	.	2A/	-ſet	o(b)	00.r	.	.	(<4f\	ihn	-cho-	1.g	recht	-ra
.	.	.	.	.	.	.	.	.	.	4d\)	.	.	.	.	.
2c\	.	.	.	2c\	ſei-	DE-	.	.	.	1e	auf-	-ra	.	.	.
!	!	!	!	!LO:TX:b:t=Wacht	!	!	!	!	!	!	!	!	!	!	!
2G\	.	.	.	2G/	-ne	-US	.	.	.	.	.	.	.	.	.
*	*	*	*	*custos:B-	*	*	*	*	*	*	*	*	*	*	*
!	!	!	!	!LO:PB:g=original	!	!	!	!	!	!	!	!	!	!	!
=55-	=55-	=55-	=55-	=55-	=55-	=55-	=55-	=55-	=55-	=55-	=55-	=55-	=55-	=55-	=55-
2B-\	.	.	.	2B-\	Wacht	noſ-	.	.	.	1d	-frecht	no-	1f	/die	no-
2F\	.	.	.	2F/	nie-	-tri	.	.	.	.	.	.	.	.	.
2A\	.	.	.	2A/	-mais	mi-	.	.	.	(<4c/	auff	-ſtrae	(>4e/	wir	-ſtrae
.	.	.	.	.	.	.	.	.	.	4d\)	.	.	4f/)	.	.
=56-	=56-	=56-	=56-	=56-	=56-	=56-	=56-	=56-	=56-	=56-	=56-	=56-	=56-	=56-	=56-
2G\	2r	.	.	2G/	ver-	-ſe-	.	.	.	(<4e\	recht	ſa-	(>4g/	ihn	ſa-
.	.	.	.	.	.	.	.	.	.	4d\)	.	.	4f/)	.	.
!LO:TX:t=P:problem:kreska pseudotaktowa	!	!	!	!	!	!	!	!	!	!	!	!	!	!	!
1A	2r	.	.	1A	-flei-	-re-	.	.	.	2d\	men-	-lu-	(>4e/	recht	-lu-
.	.	.	.	.	.	.	.	.	.	.	.	.	4d/)	.	.
.	2A\	die	(et)	.	.	.	.	.	.	2c#X/	.	.	2e/	men-	.
*	*custos:F	*	*	*	*	*	*	*	*	*	*	*	*custos:d	*	*
!	!LO:LB:g=original	!	!	!	!	!	!	!	!	!	!	!	!LO:LB:g=original	!	!
=57-	=57-	=57-	=57-	=57-	=57-	=57-	=57-	=57-	=57-	=57-	=57-	=57-	=57-	=57-	=57-
1D	(4F\	wir	an-	2D/	-nen	-re,	.	.	.	2d\	-nen	-tis,	2d/	-nen	-tis
.	4Eny\)	.	.	.	.	.	.	.	.	.	.	.	.	.	.
.	(4F\	ihn	-cho-	2r	.	.	.	.	.	2r	.	.	2r	.	.
.	4D/)	.	.	.	.	.	.	.	.	.	.	.	.	.	.
2C/	2E\	auch	-ra	2r	.	.	.	.	.	2r	.	.	2r	.	.
=58-	=58-	=58-	=58-	=58-	=58-	=58-	=58-	=58-	=58-	=58-	=58-	=58-	=58-	=58-	=58-
2G\	2G\	recht	ſa-	0.r	.	.	2d\	die	(et)	00.r	.	.	1.r	.	.
2.G\	2.G\	men-	-lu-	.	.	.	(4c\	wir	an-	.	.	.	.	.	.
.	.	.	.	.	.	.	4B-\)	.	.	.	.	.	.	.	.
.	.	.	.	.	.	.	(4c\	ihn	-cho-	.	.	.	.	.	.
!LO:TX:t=P:problem:kreska pseudotaktowa	!	!	!	!	!	!	!	!	!	!	!	!	!	!	!
4F#X\	4F#X\	.	.	.	.	.	4A/)	.	.	.	.	.	.	.	.
=59-	=59-	=59-	=59-	=59-	=59-	=59-	=59-	=59-	=59-	=59-	=59-	=59-	=59-	=59-	=59-
2G\	2G\	-nen	-tis,	.	.	.	2B-\	auch	-ra	.	.	.	2g/	die	(et)
1D	2r	.	.	.	.	.	2r	.	.	.	.	.	(>4f/	wir	an-
.	.	.	.	.	.	.	.	.	.	.	.	.	4e/)	.	.
.	2r	.	.	.	.	.	(4A/	ihn	an-	.	.	.	(>4f/	ihn	-cho-
.	.	.	.	.	.	.	4B-\)	.	.	.	.	.	4d/)	.	.
*	*	*	*	*	*	*	*custos:c	*	*	*	*	*	*	*	*
!	!	!	!	!	!	!	!LO:LB:g=original	!	!	!	!	!	!	!	!
=60-	=60-	=60-	=60-	=60-	=60-	=60-	=60-	=60-	=60-	=60-	=60-	=60-	=60-	=60-	=60-
!	!	!	!	!LO:TX:t=P:problem: VHV nie wyświetla pauzy	!	!	!	!	!	!	!	!	!	!	!
1C	00.r	.	.	1.r	.	.	(4c\	auch	-cho-	.	.	.	1e	recht	-ra
.	.	.	.	.	.	.	4B-\)	.	.	.	.	.	.	.	.
.	.	.	.	.	.	.	(4c\	recht	-ra	.	.	.	.	.	.
.	.	.	.	.	.	.	4A/)	.	.	.	.	.	.	.	.
!LO:TX:t=P:problem:kreska pseudotaktowa	!	!	!	!	!	!	!	!	!	!	!	!	!	!	!
2GG/	.	.	.	.	.	.	(4B-\	men-	ſa-	.	.	.	2d/	ihn	no-
.	.	.	.	.	.	.	4c\)	.	.	.	.	.	.	.	.
*custos:G	*	*	*	*	*	*	*	*	*	*	*	*	*	*	*
!LO:LB:g=original	!	!	!	!	!	!	!	!	!	!	!	!	!	!	!
=61-	=61-	=61-	=61-	=61-	=61-	=61-	=61-	=61-	=61-	=61-	=61-	=61-	=61-	=61-	=61-
2G\	.	.	.	2G/	Er	ſo-	1d	.	-lu-	.	.	.	(>4g/	auch	-ſtrae
.	.	.	.	.	.	.	.	.	.	.	.	.	4f/)	.	.
2A\	.	.	.	2A/	wird	-la-	.	.	.	.	.	.	(>4e/	recht	ſa-
.	.	.	.	.	.	.	.	.	.	.	.	.	4d/)	.	.
2A\	.	.	.	2A/	vns	-ti-	2c#X\	.	.	.	.	.	2e/	men-	-lu-
=62-	=62-	=62-	=62-	=62-	=62-	=62-	=62-	=62-	=62-	=62-	=62-	=62-	=62-	=62-	=62-
2B-\	.	.	.	2.B-\	noch	-um	2d\	-nen	-tis,	2d\	Er	ſo-	2d/	-nen	-tis
2G\	.	.	.	.	.	.	2r	.	.	2d\	wird	-la-	2r	.	.
*	*	*	*	*	*ij	*	*	*	*	*	*	*	*	*	*
.	.	.	.	4G/	Er	re-	.	.	.	.	.	.	.	.	.
!LO:TX:t=P:problem:kreska pseudotaktowa	!	!	!	!	!	!	!	!	!	!	!	!	!	!	!
2D/	.	.	.	4A/	wird	-fu-	2r	.	.	2d\	vns	-ti-	2r	.	.
.	.	.	.	4B-\	vns	-gi-	.	.	.	.	.	.	.	.	.
*	*	*	*	*	*	*	*	*	*	*custos:e	*	*	*	*	*
!	!	!	!	!	!	!	!	!	!	!LO:LB:g=original	!	!	!	!	!
=63-	=63-	=63-	=63-	=63-	=63-	=63-	=63-	=63-	=63-	=63-	=63-	=63-	=63-	=63-	=63-
2C/	.	.	.	2.c\	noch	-um	0.r	.	.	2.e\	noch	-um	00.r	.	.
2G\	.	.	.	.	.	.	.	.	.	.	.	.	.	.	.
*	*	*	*	*	*Xij	*	*	*	*	*	*	*	*	*	*
.	.	.	.	4B-\	die	re-	.	.	.	4d\	die	re-	.	.	.
2C/	.	.	.	4c\	Gon-	-fu-	.	.	.	4e\	Gon-	-fu-	.	.	.
.	.	.	.	4d\	-ne	-gi-	.	.	.	4f\	-ne	-gi-	.	.	.
*	*	*	*	*custos:c	*	*	*	*	*	*	*	*	*	*	*
!	!	!	!	!LO:LB:g=original	!	!	!	!	!	!	!	!	!	!	!
=64-	=64-	=64-	=64-	=64-	=64-	=64-	=64-	=64-	=64-	=64-	=64-	=64-	=64-	=64-	=64-
2C/	2C/	Er	ſo-	4c\	laſ-	-um	.	.	.	4g\	laſ-	-um	.	.	.
.	.	.	.	4B-\	-ſen	qve	.	.	.	4g\	-ſen	qve	.	.	.
2D/	2D/	wird	-la-	1A	ſchei-	noſ-	.	.	.	2g\	ſchei-	no-	.	.	.
2D/	2D/	vns	-ti-	.	.	.	.	.	.	2f#X\	.	.	.	.	.
=65-	=65-	=65-	=65-	=65-	=65-	=65-	=65-	=65-	=65-	=65-	=65-	=65-	=65-	=65-	=65-
2C/	2.E\	noch	-um	2G/	-nen	-trum,	1.ryy	.	.	2g\	-nen	-ſtrum,	.	.	.
1C	.	.	.	2r	.	.	.	.	.	2r	.	.	.	.	.
.	4D/	die	re-	.	.	.	.	.	.	.	.	.	.	.	.
.	4E\	Gon-	-fu-	2r	.	.	.	.	.	2r	.	.	.	.	.
.	4Fny\	-ne	-gi-	.	.	.	.	.	.	.	.	.	.	.	.
=66-	=66-	=66-	=66-	=66-	=66-	=66-	=66-	=66-	=66-	=66-	=66-	=66-	=66-	=66-	=66-
*	*	*	*	*	*	*	*	*	*	*	*ij	*	*	*	*
2BB-/	4G\	laſ-	-um	0.r	.	.	2G/	Er	ſo-	2d\	Er	ſo-	.	.	.
.	4G\	-ſen	qve	.	.	.	.	.	.	.	.	.	.	.	.
2C/	2G\	ſchei-	no-	.	.	.	2A/	wird	-la-	2cny/	wird	-la-	.	.	.
!LO:TX:t=P:problem:kreska pseudotaktowa	!	!	!	!	!	!	!	!	!	!	!	!	!	!	!
2D/	2F#X\	.	.	.	.	.	2A/	vns	-ti-	2d\	vns	-ti-	.	.	.
*	*custos:G	*	*	*	*	*	*	*	*	*	*	*	*	*	*
!	!LO:LB:g=original	!	!	!	!	!	!	!	!	!	!	!	!	!	!
=67-	=67-	=67-	=67-	=67-	=67-	=67-	=67-	=67-	=67-	=67-	=67-	=67-	=67-	=67-	=67-
1GG	2G\	-nen	-ſtrum,	.	.	.	2.B-\	noch	-um	2.d\	noch	-um	1.r	.	.
.	2r	.	.	.	.	.	.	.	.	.	.	.	.	.	.
.	.	.	.	.	.	.	4A/	die	re-	4c/	die	re-	.	.	.
2GG/	2r	.	.	.	.	.	4B-\	Gon-	-fu-	4d\	Gon-	-fu-	.	.	.
.	.	.	.	.	.	.	4cny\	-ne	-gi-	4e\	-ne	-gi-	.	.	.
*clefC4	*	*	*	*	*	*	*	*	*	*	*	*	*	*	*
*custos:d	*	*	*	*	*	*	*	*	*	*	*	*	*	*	*
!LO:LB:g=original	!	!	!	!	!	!	!	!	!	!	!	!	!	!	!
=68-	=68-	=68-	=68-	=68-	=68-	=68-	=68-	=68-	=68-	=68-	=68-	=68-	=68-	=68-	=68-
!	!	!	!	!LO:TX:t=P:problem: VHV nie wyświetla pauzy	!	!	!	!	!	!	!	!	!	!	!
1d	1.ryy	.	.	1.r	.	.	4d\	laſ-	-um	4fny\	laſ-	-um	2a\	die	(et)
.	.	.	.	.	.	.	4d\	-ſen	qve	4f\	-ſen	q(ve)	.	.	.
.	.	.	.	.	.	.	2d\	ſchei-	no-	1e	ſchei-	noſ-	(>4g/	wir	an-
.	.	.	.	.	.	.	.	.	.	.	.	.	4f/)	.	.
2c#X\	.	.	.	.	.	.	2c#X\	.	.	.	.	.	(>4g/	ihn	-cho-
.	.	.	.	.	.	.	.	.	.	.	.	.	4e/)	.	.
*clefF4	*	*	*	*	*	*	*custos:d	*	*	*	*	*	*	*	*
!	!	!	!	!	!	!	!LO:LB:g=original	!	!	!	!	!	!	!	!
=69-	=69-	=69-	=69-	=69-	=69-	=69-	=69-	=69-	=69-	=69-	=69-	=69-	=69-	=69-	=69-
2D/	1.ryy	.	.	2d\	die	(et)	2d\	-nen	-ſtrum,	2d\	-nen	trum,	2f/	recht	-ra
1AA	.	.	.	(4c\	wir	an-	2r	.	.	2r	.	.	2r	.	.
.	.	.	.	4B-\)	.	.	.	.	.	.	.	.	.	.	.
.	.	.	.	(4c\	ihn	-cho-	2r	.	.	2r	.	.	(>4e/	ihn	no-
.	.	.	.	4A/)	.	.	.	.	.	.	.	.	4f/)	.	.
*	*	*ij	*ij	*	*	*	*	*	*	*	*Xij	*	*	*	*
=70-	=70-	=70-	=70-	=70-	=70-	=70-	=70-	=70-	=70-	=70-	=70-	=70-	=70-	=70-	=70-
2BB-/	2BB-/	Er	ſo-	(4B-\	auch	-ra	0.r	.	.	0.r	.	.	(>4g/	auch	-ſtrae
.	.	.	.	4A/)	.	.	.	.	.	.	.	.	4f/)	.	.
2C/	2C/	wird	-la-	(>4G/	recht	ſa-	.	.	.	.	.	.	(>4e/	recht	ſa-
.	.	.	.	4F/)	.	.	.	.	.	.	.	.	4d/)	.	.
!LO:TX:t=P:problem:kreska pseudotaktowa	!	!	!	!	!	!	!	!	!	!	!	!	!	!	!
2C/	2C/	vns	-ti-	2G/	men-	-lu-	.	.	.	.	.	.	2e/	men-	-lu-
=71-	=71-	=71-	=71-	=71-	=71-	=71-	=71-	=71-	=71-	=71-	=71-	=71-	=71-	=71-	=71-
2.D/	2.D/	noch	-um	2F/	-nen	-tis,	.	.	.	.	.	.	2d/	-nen	-tis,
.	.	.	.	2r	.	.	.	.	.	.	.	.	2r	.	.
4C/	4C/	die	re-	.	.	.	.	.	.	.	.	.	.	.	.
4D/	4D/	Gon-	-fu-	2r	.	.	.	.	.	.	.	.	2r	.	.
4Eny\	4E\	-ne	-gi-	.	.	.	.	.	.	.	.	.	.	.	.
*	*	*	*	*	*	*	*	*	*	*custos:g	*	*	*	*	*
!	!	!	!	!	!	!	!	!	!	!LO:LB:g=original	!	!	!	!	!
=72-	=72-	=72-	=72-	=72-	=72-	=72-	=72-	=72-	=72-	=72-	=72-	=72-	=72-	=72-	=72-
1Fny	4Fny\	laſ-	-um	0.r	.	.	2cny\	die	(et)	2r	.	.	00.r	.	.
.	4F\	-ſen	qve	.	.	.	.	.	.	.	.	.	.	.	.
.	2F\	ſchei-	no-	.	.	.	(4B-\	wir	an-	2r	.	.	.	.	.
.	.	.	.	.	.	.	4A/)	.	.	.	.	.	.	.	.
2E\	2E\	.	.	.	.	.	(4B-\	ihn	-cho-	2g\	die	(et)	.	.	.
.	.	.	.	.	.	.	4G/)	.	.	.	.	.	.	.	.
=73-	=73-	=73-	=73-	=73-	=73-	=73-	=73-	=73-	=73-	=73-	=73-	=73-	=73-	=73-	=73-
1F	2F\	-nen	-ſtrum,	.	.	.	2A/	auch	-ra	(4f\	wir	an-	.	.	.
.	.	.	.	.	.	.	.	.	.	4e\)	.	.	.	.	.
.	2r	.	.	.	.	.	(4A/	ihn	no-	(4f\	ihn	-cho-	.	.	.
.	.	.	.	.	.	.	4B-\)	.	.	4d\)	.	.	.	.	.
2C/	2r	.	.	.	.	.	2c\	auch	-ſtrae	(4e\	auch	-ra	.	.	.
.	.	.	.	.	.	.	.	.	.	4f\)	.	.	.	.	.
*	*	*Xij	*Xij	*	*	*	*	*	*	*	*	*	*	*	*
=74-	=74-	=74-	=74-	=74-	=74-	=74-	=74-	=74-	=74-	=74-	=74-	=74-	=74-	=74-	=74-
2G\	0.r	.	.	2G/	Er	ſo-	2d\	recht	ſa-	(4g\	recht	ſa-	.	.	.
.	.	.	.	.	.	.	.	.	.	4f\)	.	.	.	.	.
2A\	.	.	.	2A/	wird	-la-	2d\	men-	-lu-	1e	men-	-lu-	.	.	.
!LO:TX:t=P:problem:kreska pseudotaktowa	!	!	!	!	!	!	!	!	!	!	!	!	!	!	!
2A\	.	.	.	2A/	vns	-ti-	2c#X\	.	.	.	.	.	.	.	.
*custos:B-	*	*	*	*custos:B-	*	*	*	*	*	*	*	*	*	*	*
!LO:LB:g=original	!	!	!	!LO:LB:g=original	!	!	!	!	!	!	!	!	!	!	!
=75-	=75-	=75-	=75-	=75-	=75-	=75-	=75-	=75-	=75-	=75-	=75-	=75-	=75-	=75-	=75-
2B-\	.	.	.	2.B-\	noch	-um	2d\	-nen	-tis,	2d\	-nen/	-tis	.	.	.
2G\	.	.	.	.	.	.	2r	.	.	2r	.	.	.	.	.
.	.	.	.	4G/	die	re-	.	.	.	.	.	.	.	.	.
2F\	.	.	.	4A/	Gon-	-fu-	2r	.	.	2r	.	.	.	.	.
.	.	.	.	4B-\	-ne	-gi-	.	.	.	.	.	.	.	.	.
=76-	=76-	=76-	=76-	=76-	=76-	=76-	=76-	=76-	=76-	=76-	=76-	=76-	=76-	=76-	=76-
2F\	(2A\	die	(et)	4c\	laſ-	-um	0.r	.	.	0.r	.	.	1.r	.	.
.	.	.	.	4c\	-ſen	qve	.	.	.	.	.	.	.	.	.
!LO:TX:t=P:problem:kreska pseudotaktowa	!	!	!	!	!	!	!	!	!	!	!	!	!	!	!
1D	4F\	wir	an-	2c\	ſchei-	no-	.	.	.	.	.	.	.	.	.
.	4E\)	.	.	.	.	.	.	.	.	.	.	.	.	.	.
.	(4F\	ihn	-cho-	2Bn\	.	.	.	.	.	.	.	.	.	.	.
.	4D/)	.	.	.	.	.	.	.	.	.	.	.	.	.	.
=77-	=77-	=77-	=77-	=77-	=77-	=77-	=77-	=77-	=77-	=77-	=77-	=77-	=77-	=77-	=77-
2C/	(4E\	auch	-ra	2c\	-nen	-ſtrum,	.	.	.	.	.	.	2ccny\	die	(et)
.	4F\)	.	.	.	.	.	.	.	.	.	.	.	.	.	.
1GG	1G	recht	no-	2r	.	.	.	.	.	.	.	.	(4b-\	wir	an-
.	.	.	.	.	.	.	.	.	.	.	.	.	4a\)	.	.
.	.	.	.	2r	.	.	.	.	.	.	.	.	(4b-\	ihn	-cho-
.	.	.	.	.	.	.	.	.	.	.	.	.	4g/)	.	.
=78-	=78-	=78-	=78-	=78-	=78-	=78-	=78-	=78-	=78-	=78-	=78-	=78-	=78-	=78-	=78-
2C/	(4F#X\	men-	-ſtrae	00.r	.	.	2A/	Er	ſo-	1.r	.	.	(4a\	auch	-ra
.	4G\)	.	.	.	.	.	.	.	.	.	.	.	4b-\)	.	.
2BB-/	(4A\	.	ſa-	.	.	.	2A/	wird	-la-	.	.	.	(4cc\	recht	ſa-
.	4G\)	.	.	.	.	.	.	.	.	.	.	.	4b-\)	.	.
!	!	!	!	!	!	!	!LO:TX:b:t=noch	!	!	!	!	!	!	!	!
!LO:TX:t=P:problem:kreska pseudotaktowa	!	!	!	!	!	!	!	!	!	!	!	!	!	!	!
2C/	2F#X\	.	-lu-	.	.	.	2A/	vns	-ti-	.	.	.	2a\	men-	-lu-
*	*	*	*	*	*	*	*custos:B-	*	*	*	*	*	*	*	*
!	!	!	!	!	!	!	!LO:PB:g=original	!	!	!	!	!	!	!	!
=79-	=79-	=79-	=79-	=79-	=79-	=79-	=79-	=79-	=79-	=79-	=79-	=79-	=79-	=79-	=79-
1GG	2G\	-nen	-tis,	.	.	.	2.B-\	noch	-um	2d\	Er	ſo-	2g/	-nen	-tis
.	2r	.	.	.	.	.	.	.	.	2d\	wird	-la-	2r	.	.
*	*	*	*	*	*	*	*	*ij	*	*	*	*	*	*	*
.	.	.	.	.	.	.	4G/	Er	re-	.	.	.	.	.	.
2D/	2r	.	.	.	.	.	4A/	wird	-fu-	2d\	vns	-ti-	2r	.	.
.	.	.	.	.	.	.	4B-\	vns	-gi-	.	.	.	.	.	.
*	*custos:FF	*	*	*	*	*	*	*	*	*	*	*	*	*	*
!	!LO:LB:g=original	!	!	!	!	!	!	!	!	!	!	!	!	!	!
=80-	=80-	=80-	=80-	=80-	=80-	=80-	=80-	=80-	=80-	=80-	=80-	=80-	=80-	=80-	=80-
2C/	1.r	.	.	.	.	.	2.cNY\	noch	-um	2.e\	noch	-um	00.r	.	.
2AA/	.	.	.	.	.	.	.	.	.	.	.	.	.	.	.
*	*	*	*	*	*	*	*	*Xij	*	*	*	*	*	*	*
.	.	.	.	.	.	.	4A/	die	re-	4c/	die	re-	.	.	.
!LO:TX:t=P:problem:kreska pseudotaktowa	!	!	!	!	!	!	!	!	!	!	!	!	!	!	!
!LO:TX:b:t=Ggggg	!	!	!	!	!	!	!	!	!	!	!	!	!	!	!
2GG/	.	.	.	.	.	.	4B-\	Gon-	-fu-	4d\	Gon-	-fu-	.	.	.
.	.	.	.	.	.	.	4c\	-ne	-gi-	4e\	-ne	-gi-	.	.	.
*	*	*	*	*	*	*	*	*	*	*custos:f	*	*	*	*	*
!	!	!	!	!	!	!	!	!	!	!LO:LB:g=original	!	!	!	!	!
=81-	=81-	=81-	=81-	=81-	=81-	=81-	=81-	=81-	=81-	=81-	=81-	=81-	=81-	=81-	=81-
2FF/	2FF/	Er	ſo-	.	.	.	4d\	laſ-	-um	4f\	laſ-	-um	.	.	.
.	.	.	.	.	.	.	4d\	-ſen	qve	4f\	-ſen	qve	.	.	.
2GG/	2GG/	wird	-la-	.	.	.	2d\	ſchei-	no-	1e	ſchei-	no-	.	.	.
2AA/	2AA/	vns	-ti-	.	.	.	2c#X\	.	.	.	.	.	.	.	.
*custos:BB-	*	*	*	*	*	*	*	*	*	*	*	*	*	*	*
!LO:PB:g=original	!	!	!	!	!	!	!	!	!	!	!	!	!	!	!
=82-	=82-	=82-	=82-	=82-	=82-	=82-	=82-	=82-	=82-	=82-	=82-	=82-	=82-	=82-	=82-
!	!	!	!	!LO:TX:t=P:problem: VHV nie wyświetla pauzy	!	!	!	!	!	!	!	!	!	!	!
1BB-X	2.BB-/	noch	-um	1.r	.	.	2d\	-nen	-ſtrum,	2d\	-nen/	-ſtrum,	.	.	.
.	.	.	.	.	.	.	2r	.	.	2r	.	.	.	.	.
.	4C/	die	re-	.	.	.	.	.	.	.	.	.	.	.	.
!LO:TX:t=P:problem:kreska pseudotaktowa	!	!	!	!	!	!	!	!	!	!	!	!	!	!	!
2BB-/	4D/	Go(n)-	-fu-	.	.	.	2r	.	.	2r	.	.	.	.	.
.	4E\	-ne	-gi-	.	.	.	.	.	.	.	.	.	.	.	.
=83-	=83-	=83-	=83-	=83-	=83-	=83-	=83-	=83-	=83-	=83-	=83-	=83-	=83-	=83-	=83-
*	*	*	*	*	*ij	*	*	*	*	*	*	*	*	*	*
1F	4Fny\	laſ-	-um	2F/	Er	ſo-	0.r	.	.	2c/	die	(et)	.	.	.
.	4F\	-ſen	qve	.	.	.	.	.	.	.	.	.	.	.	.
.	2F\	ſchei-	no-	2G/	wird	-la-	.	.	.	(>4B-/	wir	an-	.	.	.
.	.	.	.	.	.	.	.	.	.	4A/)	.	.	.	.	.
2E\	2E\	.	.	2G/	vns	-ti-	.	.	.	(>4B-/	ihn	-cho-	.	.	.
.	.	.	.	.	.	.	.	.	.	4G/)	.	.	.	.	.
*	*	*	*	*	*	*	*	*	*	*	*	*	*custos:c	*	*
!	!	!	!	!	!	!	!	!	!	!	!	!	!LO:LB:g=original	!	!
=84-	=84-	=84-	=84-	=84-	=84-	=84-	=84-	=84-	=84-	=84-	=84-	=84-	=84-	=84-	=84-
1F	2F\	-nen	-ſtrum,	2.A/	noch	-um	.	.	.	1c	auf-	-ra	1.r	.	.
.	(4F\	die	An-	.	.	.	.	.	.	.	.	.	.	.	.
.	4E\)	.	.	4G/	die	re-	.	.	.	.	.	.	.	.	.
2D/	(4F\	wir	-cho-	4A/	Gon-	-fu-	.	.	.	2F/	-frecht	ſa-	.	.	.
.	4D/)	.	.	4B-y\	-ne	-gi-	.	.	.	.	.	.	.	.	.
=85-	=85-	=85-	=85-	=85-	=85-	=85-	=85-	=85-	=85-	=85-	=85-	=85-	=85-	=85-	=85-
!	!	!	!	!	!	!	!LO:TX:t=P:problem: VHV nie wyświetla pauzy	!	!	!	!	!	!	!	!
2C/	1E	ihn	-ra	4c\	laſ-	-um	1.r	.	.	1G	men-	-lu-	2c/	Er	ſo-
.	.	.	.	4c\	-ſen	qve	.	.	.	.	.	.	.	.	.
2E\	.	.	.	2c\	ſchei-	no-	.	.	.	.	.	.	2c/	wird	-la-
2D/	(>2D/	auch	noſ-	2Bn\	.	.	.	.	.	2F/	-nen	-tis,	2d/	vns	-ti-
*	*	*	*	*custos:c	*	*	*	*	*	*	*	*	*	*	*
!	!	!	!	!LO:LB:g=original	!	!	!	!	!	!	!	!	!	!	!
=86-	=86-	=86-	=86-	=86-	=86-	=86-	=86-	=86-	=86-	=86-	=86-	=86-	=86-	=86-	=86-
2C/	4C/	recht	-trae	2c\	-nen	-ſtrum,	2cny\	die	(et)	2G/	er	ſo-	2.e/	auch	-um
.	4BB-/)	.	.	.	.	.	.	.	.	.	.	.	.	.	.
!LO:TX:t=P:problem:kreska pseudotaktowa	!	!	!	!	!	!	!	!	!	!	!	!	!	!	!
1AA	(>4AA/	men-	ſa-	2r	.	.	(<4c\	wir	an-	2c/	wird	-la-	.	.	.
*	*	*	*	*	*Xij	*	*	*	*	*	*	*	*	*ij	*
.	4GG/)	.	.	.	.	.	4B-\)	.	.	.	.	.	4e/	Er	re-
.	2AA/	.	-lu-	2r	.	.	(<4c\	ihn	-cho-	2c/	vns	-ti-	4e/	wird	-fu-
.	.	.	.	.	.	.	4A/)	.	.	.	.	.	4f/	vns	-gi-
*	*custos:GG	*	*	*	*	*	*	*	*	*	*	*	*	*	*
!	!LO:LB:g=original	!	!	!	!	!	!	!	!	!	!	!	!	!	!
=87-	=87-	=87-	=87-	=87-	=87-	=87-	=87-	=87-	=87-	=87-	=87-	=87-	=87-	=87-	=87-
1GG	2GG/	-nen	-tis,	0.r	.	.	1.B-	auch	-ra	2.d\	noch	-um,	2.g/	auch	-um,
.	2r	.	.	.	.	.	.	.	.	.	.	.	.	.	.
*	*	*	*	*	*	*	*	*	*	*	*	*	*	*Xij	*
.	.	.	.	.	.	.	.	.	.	4c/	die	re-	4g/	die	re-
2BB-/	2r	.	.	.	.	.	.	.	.	4d\	Gon-	-fu-	4f/	Gon-	-fu-
.	.	.	.	.	.	.	.	.	.	4e\	-ne	-gi	4g/	-ne	-gi-
*	*	*	*	*	*	*	*	*	*	*custos:f	*	*	*	*	*
!	!	!	!	!	!	!	!	!	!	!LO:LB:g=original	!	!	!	!	!
=88-	=88-	=88-	=88-	=88-	=88-	=88-	=88-	=88-	=88-	=88-	=88-	=88-	=88-	=88-	=88-
2AA/	2AA/	Er	ſo-	.	.	.	2A/	recht	ſa-	4f\	laſ-	-um	4a\	laſ-	-um
.	.	.	.	.	.	.	.	.	.	4f\	-ſen	qve	4f/	-ſen	qve
2BB-/	2BB-/	wird	-la-	.	.	.	1G	men-	-lu-	2f\	ſchei-	no-	2.g/	ſchei-	no-
2C/	2C/	vns	-ti-	.	.	.	.	.	.	2e\	.	.	.	.	.
.	.	.	.	.	.	.	.	.	.	.	.	.	4a\	.	.
*	*	*	*	*	*	*	*custos:F	*	*	*	*	*	*	*	*
!	!	!	!	!	!	!	!LO:LB:g=original	!	!	!	!	!	!	!	!
=89-	=89-	=89-	=89-	=89-	=89-	=89-	=89-	=89-	=89-	=89-	=89-	=89-	=89-	=89-	=89-
1D	2.D/	noch	-um	2B-y\	Er	ſo-	4Fny/	-nen	-tis,	2f\	-nen	-ſtrum,	2b-\	.	.
.	.	.	.	.	.	.	4F/	Er	ſo-	.	.	.	.	.	.
.	.	.	.	2B-\	wird	-la-	2F/	wird	-la-	2r	.	.	2f/	-nen	-ſtrum,
.	4C/	die	re-	.	.	.	.	.	.	.	.	.	.	.	.
2D/	4D/	Gon-	-fu-	2B-\	vns	-ti-	2F/	vns	-ti-	2r	.	.	2r	.	.
.	4E\	-ne	-gi-	.	.	.	.	.	.	.	.	.	.	.	.
*custos:F	*	*	*	*	*	*	*	*	*	*	*	*	*custos:f	*	*
!LO:LB:g=original	!	!	!	!	!	!	!	!	!	!	!	!	!LO:LB:g=original	!	!
=90-	=90-	=90-	=90-	=90-	=90-	=90-	=90-	=90-	=90-	=90-	=90-	=90-	=90-	=90-	=90-
*	*	*	*	*	*	*	*	*	*	*	*ij	*	*	*	*
1F	1F	laſ-	-um	2A/	noch	-um	2.A/	noch	-um	2c/	Er	ſo-	2f/	Er	ſo-
.	.	.	.	2r	.	.	.	.	.	2c/	wird	-la-	2f/	wird	-la-
.	.	.	.	.	.	.	4G/	die	re-	.	.	.	.	.	.
*	*	*	*	*	*	*	*	*	*	*	*	*ij	*	*	*
2D/	2D/	-ſen	qve	2r	.	.	4A/	Gon-	-fu-	2d\	vns	-ti-	2f/	vns	-ti-
.	.	.	.	.	.	.	4F/	-ne	-gi-	.	.	.	.	.	.
=91-	=91-	=91-	=91-	=91-	=91-	=91-	=91-	=91-	=91-	=91-	=91-	=91-	=91-	=91-	=91-
1C	0.C	ſchei-	noſt-	4r	.	.	1c	laſ-	-um	2.e\	auch	-um,	1g	auch	-um,
.	.	.	.	4G/	die	re-	.	.	.	.	.	.	.	.	.
.	.	.	.	4A/	Gon-	-fu-	.	.	.	.	.	.	.	.	.
.	.	.	.	4B-\	ne	-gi-	.	.	.	4d\	die	re-	.	.	.
2C/	.	.	.	4c\	laſ-	-um	2c\	-ſen	qve	4e\	Gon-	-fu-	4r	.	.
.	.	.	.	4A/	-ſen	qve	.	.	.	4f\	-ne	-gi-	4c/	die	re-
=92-	=92-	=92-	=92-	=92-	=92-	=92-	=92-	=92-	=92-	=92-	=92-	=92-	=92-	=92-	=92-
1C	.	.	.	1.G	ſchei-	noſ-	1.c	ſchei-	noſ-	4g\	laſ-	-um	4e/	Gon-	-fu-
.	.	.	.	.	.	.	.	.	.	4f\	-ſen	qve	4f/	-ne	-gi-
.	.	.	.	.	.	.	.	.	.	(2f\	ſchei-	no-	4g/	laſ-	-um
.	.	.	.	.	.	.	.	.	.	.	.	.	4a\	-ſen	qve
2C/	.	.	.	.	.	.	.	.	.	2e\)	.	.	2g/	ſchei-	no-
=93-	=93-	=93-	=93-	=93-	=93-	=93-	=93-	=93-	=93-	=93-	=93-	=93-	=93-	=93-	=93-
00.FFl	00.FFl	-nen.	-rum.	00.F	-nen.	-trum.	00.cl	-nen.	-trum.	00.fl	-nen	-ſtrum,	00.al	-nen.	-ſtrum.
*	*	*	*	*	*	*	*	*	*	*	*Xij	*Xij	*	*	*
==	==	==	==	==	==	==	==	==	==	==	==	==	==	==	==
*-	*-	*-	*-	*-	*-	*-	*-	*-	*-	*-	*-	*-	*-	*-	*-
!!!system-decoration: [(s1,s2,s3,s4,s5)]s6
!!!RDF**kern: > = above
!!!RDF**kern: < = below
!!!RDF**kern: l =terminal long
!!!ENC: Filip Voros
!!!END: 2022-10-30
!!!ENC: Natalia Wrzos
!!!END: 2022-11-20
